lixinHUST/Gated-Conditional-Diffusion-Model/files/glcm.csv
,GLCM_Autocorrelation,GLCM_ClusterProminence,GLCM_ClusterShade,GLCM_ClusterTendency,GLCM_Contrast,GLCM_Correlation,GLCM_DifferenceAverage,GLCM_DifferenceEntropy,GLCM_DifferenceVariance,GLCM_Id,GLCM_Idm,GLCM_Idmn,GLCM_Idn,GLCM_Imc1,GLCM_Imc2,GLCM_InverseVariance,GLCM_JointAverage,GLCM_JointEnergy,GLCM_JointEntropy,GLCM_MCC,GLCM_MaximumProbability,GLCM_SumAverage,GLCM_SumEntropy,GLCM_SumSquares
0d8fc33c55f2f6af87ee3bd16614e208_R_CC.nii.gz,5754.801475117361,17121882.278473828,-54423.098208585856,2625.7352818073855,253.41647466232848,0.8220482283118009,12.468475397962974,4.815929144290461,85.09094214103052,0.14937866911646674,0.07284900034208372,0.9852511143993035,0.9154777062138078,-0.587205251796837,0.9997345260732357,0.08237634875871325,71.83995892392636,0.0019253792398104827,9.078708862157441,0.893425808579199,0.004532265526054346,143.6799178478526,7.0579373575918884,719.7879391174295
0f19f51df3ae39481f0a88d5b17b8499_R_CC.nii.gz,8847.2228981404,35356247.79308936,-173737.81308537553,3187.0091414170156,106.77521915214537,0.934808727662144,7.5487644563517575,4.323700521902495,46.736886819214455,0.24316817002097246,0.15920299679056876,0.993660729151467,0.9466986253088256,-0.48924660118677765,0.9990457319986881,0.15188274443929106,89.87274548174241,0.0015095821145627649,9.726900147662098,0.9750720186269333,0.009853091247922323,179.74549096348483,7.302689569351806,823.4460901422892
0fab8097f55f21d4bfa7667250122312_L_CC.nii.gz,8469.49262119628,18968865.158041723,-66252.06727964262,2630.1227250729657,232.72327321662016,0.8366649272911063,11.392468717869981,4.870255280770958,93.66550179659356,0.18818607240604757,0.11280203773114908,0.9865643628647928,0.9227349805211609,-0.36124158180106813,0.9949578602597393,0.10078812571049107,88.7129760881315,0.0010324978977814343,10.565422022372346,0.8818872926461147,0.015375143406260706,177.4259521762628,7.405482039124298,715.7114995723963
014d843f13a9d86fec945664e2541fe6_R_CC.nii.gz,5214.433088419913,8950284.155358547,-3473.5994459157087,1786.7739972710197,192.6714067917188,0.8028345948515877,11.108789592843642,4.642215238978,58.83577798432769,0.1716896076386496,0.09619344887652571,0.9886129654129054,0.9233032820264881,-0.5398464801721022,0.9993886465867249,0.08932943858904374,69.39210465921511,0.0019873058073022858,9.084271932371855,0.8570339728700328,0.006520713117904518,138.78420931843021,6.899124469336107,494.8613510156853
02c9621d5af7d0485e20c071f605678c_R_CC.nii.gz,4535.095626635504,7029923.114129163,22555.53458168562,1333.1009592423477,217.2893661429722,0.7158929751157559,10.924108129007644,4.564695737039668,88.5085699085044,0.1869099661090899,0.10666209735985949,0.9874338580012999,0.9256327802634228,-0.5126113442305669,0.9979907836716978,0.08491561373855358,65.23531801545718,0.004223778931493595,8.023367255053433,0.8548855804575912,0.012852114889814109,130.47063603091433,6.299809065377598,387.5975813463299
07a0dbae70b94afb01313eeeeaaef9ac_R_CC.nii.gz,8400.94111176115,28468472.740386337,-158242.12547638846,3022.552988700158,85.49903207172737,0.9446217214204241,7.211496117549148,4.185954167777977,30.139625881935206,0.23097224304374442,0.14255006628540612,0.9948677971747393,0.9483297171449632,-0.5074622291097874,0.9991819707978076,0.1229922789669607,87.55792816472962,0.0017375162233689697,9.480937527418524,0.9819718043521805,0.012179119928544247,175.11585632945946,7.169265661025152,777.013005192972
0910d9262da2398810b2f2bc32b77088_L_CC.nii.gz,8435.738233802587,10939255.889719177,-68923.5443222513,1411.5551406156903,80.71116869216839,0.8903937338582332,6.6722238874471795,4.154845386462177,34.462483727379784,0.24330352723488674,0.1535450905230629,0.9951843873152734,0.9522290974338405,-0.3709355252524784,0.9939658963599134,0.15765075155970681,90.01638333284693,0.0014381538257787429,9.79057728447717,0.9471590277438562,0.005786583617748349,180.03276666569388,6.89066449825381,373.0665773269646
0928a31ce88182b08f89a6aa72354037_L_CC.nii.gz,4207.4085158123,22938671.488031458,75741.95611341675,3273.4676289761574,232.19951787504695,0.8683420835647655,11.59185974762854,4.789105255588321,89.772768593825,0.169031113607855,0.0906696328010573,0.9865516176708532,0.921200003701236,-0.5979816249120096,0.9997607281691776,0.08826792537273001,58.71133018772022,0.002131584383597164,8.964884548667401,0.9268565894738078,0.006923708316102168,117.42266037544043,7.049488648731627,876.4167867128014
1e2b0ce2c5a93c643834c98803e6ac2d_L_CC.nii.gz,6054.433838892332,24674164.09166544,-1697.6956220612096,3257.345397075668,225.66618638538367,0.868698452868956,11.401912757239138,4.729039378232782,80.18807596093956,0.1909430593099935,0.11649868915027867,0.9868246463650727,0.9224636810967115,-0.5204831730522543,0.9994737294918916,0.1073070817652392,72.77129921917485,0.001263292549992824,9.791536466856822,0.895553432762336,0.006454497960952719,145.5425984383497,7.419767543936399,870.752895865264
1fe77db1e47d9133c2bc799fc2e3c4ba_L_CC.nii.gz,7277.426468196012,22040305.9934465,-46453.760169249756,2868.3683401195176,81.14312846350792,0.9449776560854333,7.007984446928234,4.175181754820457,30.244594127785682,0.22605450931394425,0.1356961462918282,0.9951292323894557,0.9496851028871419,-0.47281678625735923,0.9988818067646048,0.13659116117490008,81.12025635689409,0.0012292699043691738,9.892418355275453,0.955126409786606,0.00440529037869174,162.2405127137882,7.38731755912336,737.3778671457565
2b48f13688211af161ca5880d9fcaec3_R_CC.nii.gz,5825.142081626771,29092773.38191614,-2894.6679744445923,3826.9633941973543,57.38213220211707,0.9703645276275483,5.591972029808435,3.933579221436693,24.426148642228828,0.28188897497589527,0.19312771980376026,0.9965515583129324,0.9594699181759152,-0.40692059857163443,0.9977248536990646,0.1837261434643102,69.87590952603978,0.0007524171458553758,10.759914403976174,0.9720598111380433,0.004233406725827516,139.75181905207938,7.754021559149467,971.0863815998695
2c90542f6f10926cde501ebd8de7c3c3_R_CC.nii.gz,8124.129885789016,30142186.45280292,-163148.33647568387,3150.732097543355,278.02597364997126,0.8365716277836504,12.515015619083679,4.738833800437033,107.97189708613378,0.16783297268996417,0.09205870802828062,0.9839816760457499,0.9161173307856367,-0.6713593455778322,0.9998458286244254,0.09593731140187976,86.05677774409816,0.0040932980314562556,8.000111483422426,0.9727702177017641,0.01224401218107261,172.1135554881962,6.473290549130255,857.189517798331
2cae5c9d4a922766fd01dd69a004ea5c_L_CC.nii.gz,6460.570564965085,9331903.02596722,-49898.27839319968,1713.7288778199368,123.78314436831427,0.8649291736211033,8.308345528969614,4.468871988046332,52.52465898777381,0.21400038501331572,0.12840980304380994,0.9926915654418589,0.9416092827668275,-0.3397387211223203,0.99254456216297,0.12572807974294165,77.86554107999604,0.0009655226969186247,10.38389844977092,0.877398638338634,0.0059076939473463935,155.73108215999218,7.1869402130097235,459.3780055470633
2df4404b9c286ec49851d4261faec924_R_CC.nii.gz,5497.351294153923,21638283.77349784,47719.784964052735,3080.2752666240094,341.53175512259645,0.7992944721809176,15.144301522062495,4.882463618529373,97.70335153650686,0.12756677984265824,0.05965634490533264,0.9802462758697601,0.8988699709165093,-0.676752264457581,0.999852007915123,0.0529446167220914,69.36332625321256,0.004176716616489748,7.946396784084028,0.9489511138742569,0.00846266660420067,138.72665250642504,6.505799693528785,855.4517554366514
2e1f57baf6e3e742404c401b0999cadb_R_CC.nii.gz,5547.585572634271,23459112.46117821,-49807.61120497907,3278.547839695387,54.35523769742947,0.9672097519787713,5.679026132312448,3.8792012098941844,19.92841552174516,0.2650400830431053,0.173311706671617,0.9967202955987612,0.9586574566662682,-0.39993941169398717,0.9971792704468919,0.16811588459427512,68.85859459298642,0.0008104438846611581,10.653081780898628,0.9726655555097854,0.0033791198933833394,137.7171891859723,7.694202556563884,833.2257693482029
2fe156e5ce59814559b0a9f01de006df_L_CC.nii.gz,6767.484957123825,33044960.36667935,-33989.258138502926,3987.7830882812523,44.0805367726863,0.9781117256990048,4.729003039516599,3.7209961942562595,20.638718236881054,0.314168609585874,0.22457423884191546,0.9973586825420504,0.9654767368767054,-0.4193904045059697,0.9980393934871982,0.2020146261843768,76.03615601332183,0.0012762086838628084,10.640014803944698,0.9797318334896655,0.022637302302383686,152.07231202664366,7.751343600534724,1007.9659062634835
3b9d3e9aa2fcdefd74d4cbfb496694b4_R_CC.nii.gz,6277.041774692116,21574314.557393286,-30530.34164932232,3171.744170217511,109.61758413709872,0.9327788540651443,8.032801816533627,4.39543713499972,42.48636962160394,0.2137521683246367,0.1269623856169626,0.9934778378941187,0.943107540718023,-0.3999095534579948,0.9974740187404678,0.1187139848496519,74.23808174890642,0.0007554935775640691,10.650382431586905,0.9402235322505217,0.0042653320842750315,148.47616349781288,7.6393317000448135,820.3404385886515
4e6f6c5e70433a176643f635747a328d_L_CC.nii.gz,7315.2313177913165,28973856.392901905,-93844.10529181904,3130.1961233460206,221.70968854958778,0.8654419783134939,11.8338665700584,4.679153953691406,70.01996348099286,0.16664276604129252,0.09210325693126073,0.9869658117507649,0.9190263362964286,-0.6420832980106036,0.9998082804378466,0.08516139611560786,81.16385139875634,0.003270053165155654,8.32211193626061,0.9685425694580714,0.008368536854869765,162.32770279751273,6.6563813962100085,837.976452973902
4fc011ee4b49040648fdd2d3dcf883c3_R_CC.nii.gz,3450.6106032996518,16063744.855280438,20046.28190934568,2458.396756946646,193.98352758281422,0.8537025655174328,10.606382910407367,4.702516542046418,77.1040332159094,0.18626952491709253,0.10825453324479618,0.9886865177104325,0.9270988688131959,-0.5495047839375728,0.9993559029307225,0.0960367165423296,53.70618094327238,0.002441813028939205,8.784578344223164,0.897889041185432,0.006883742081826002,107.41236188654473,6.93365820817151,663.0950711323649
5babce4b963ba18124477ce11d284ac6_L_CC.nii.gz,3842.150330551312,31604031.722670283,135182.3496381996,4154.483945606618,54.67312307845341,0.9740596050309729,5.2529478403028715,3.811035989219928,25.03822084331684,0.2991903531606398,0.21043492829860688,0.9967177793833386,0.96195633143939,-0.479419733906866,0.99881048424814,0.2006837450699981,53.07648539641393,0.0015979635864713415,9.707129003641336,0.9829400401685371,0.008150699481296531,106.15297079282787,7.32410963106679,1052.2892671712689
5f97a8ee0bc7b1ffb941035bc5291db8_L_CC.nii.gz,5553.533160683894,16774719.660019793,-1280.909391554398,2818.941996273686,44.04071668637203,0.9692196419308793,4.97032181987548,3.752906821232772,18.022929058464424,0.2908790229314413,0.1993369752954165,0.9973429889905026,0.9636253250977891,-0.3480893762248693,0.9941533798455138,0.19824267225655023,69.71216532109626,0.0006759963040541425,10.959548355378478,0.9715033371430307,0.0026002948075607795,139.4243306421926,7.655165175045772,715.7456782400159
5fb086552ff0566a7ba0fba65d5c4823_L_CC.nii.gz,8627.520000099415,21052207.21756565,-100508.66269226714,2860.3028054512683,92.09145668606091,0.9373361141649594,7.054041949758506,4.218190705192505,38.47034258567216,0.24991041382226353,0.1652263048043775,0.9945148362523999,0.9498297353248719,-0.39006646924534005,0.9966040318418049,0.1631650700037542,89.08053122107229,0.0009092976344280537,10.520306601445954,0.9469213588989375,0.005564808561596954,178.16106244214467,7.4601237370044124,738.0985655343343
6adbb464cba25c728e2d6c29ee9ee1bc_L_CC.nii.gz,7120.104983258415,28800430.85380798,-39723.02719714938,4085.5520501016977,155.91127998431287,0.926057642111964,8.99043162123423,4.542041642422436,69.62828498509474,0.2132910460627869,0.13061552702583434,0.9909204502268583,0.9377623902780834,-0.5063978492077852,0.9993342437615765,0.13548113230722608,78.34111450721198,0.0013099914140428663,9.787607472347831,0.9364341583205937,0.006403554433994457,156.68222901442397,7.438417104096637,1060.3658325215033
6d75446a6406fc669f3464543b8f7893_L_CC.nii.gz,9345.019350864544,32581872.802210614,-170003.82459860118,3600.6589296785437,115.91995882273395,0.937409499299187,7.800575589963627,4.39347193443696,51.51184987903675,0.2502237301203918,0.16825661935205266,0.9931413666739558,0.9451753516862782,-0.4103906624308846,0.9972500398432197,0.13980282376472264,92.05249262121991,0.0023018197546403234,10.205179417637446,0.9499180238529237,0.036569550801535185,184.10498524243985,7.359430942623888,929.1447221253218
7bb82359496060cc5af7fd939e760ff5_L_CC.nii.gz,5092.063960140048,44539609.11646951,56596.6465481631,5174.296637095419,409.9949508958676,0.8516789181985382,15.776347158750466,4.61498530648856,140.08282655202046,0.14227017150264126,0.07552095108580159,0.9768102411441589,0.8966905932223507,-0.7707319373308252,0.9999233638838851,0.05411466106025645,62.452330474051855,0.007931584305084347,7.009115975390864,0.9976673438083448,0.014735160756514504,124.90466094810374,5.802309728161905,1396.0728969978222
7c49a0d284532fa3e537ac87991c9608_L_CC.nii.gz,8271.218671728859,24594367.595934547,-117764.74278040277,3066.9839306352596,287.02443281501513,0.823065384553532,13.192033283112975,4.645145772915218,89.79002763192348,0.16122601284001323,0.08959859590145505,0.9833149885818832,0.9114603564482806,-0.6727528413513244,0.9998656163318742,0.09943091424828229,87.04031302720294,0.003796346852657911,8.115953806810651,0.9433587279565471,0.01209679909092284,174.08062605440594,6.502441057982907,838.5020908625686
7f0eb50793a773fb4bddaeff7e3c7c14_L_CC.nii.gz,10345.20172205553,41575800.13632181,-222627.55785370996,3463.4588369284484,198.79337870599485,0.8906280110015873,9.785672957133581,4.666557975073303,98.35931810277026,0.2634483437851182,0.19412997844210045,0.9884800194501823,0.9335988012256501,-0.5077719094854931,0.9987424326427983,0.1456680747251334,97.61497001719567,0.0060816194547974635,8.855362601918989,0.9300074874350317,0.05830818316342347,195.22994003439138,6.876048371910111,915.5630539086104
8dd986e8174fc84c2a984e66a416ff9f_R_CC.nii.gz,6540.594568276369,18726124.107671976,-41160.86839475501,2791.368959019425,126.19219990147724,0.9131793281067411,8.5230949898075,4.4618082022855114,48.89919954960253,0.20821759934844436,0.12260386996238123,0.9925247023034521,0.9400917367725421,-0.2879220585178394,0.9872617105353383,0.11806584199140285,76.64350881377952,0.0005011701307404511,11.358264197212474,0.9158152685955014,0.002178573306234225,153.2870176275589,7.652719455093304,729.3902897302228
8e30fe5fbe424206c9f57ce26f80f6c2_R_CC.nii.gz,6922.190200834383,18536278.870740682,-4612.755784180437,2990.3788746906143,110.86053360173774,0.9282929666443581,7.843293536458241,4.380492846523055,46.96745389358338,0.22667981242879665,0.1409744187825829,0.9934169779914517,0.9446202962025811,-0.4430514609106747,0.9983955611249969,0.13949122378117562,78.75361011352084,0.0010684492145938023,10.141222654578137,0.9489055250439623,0.00516616912971329,157.50722022704173,7.462194368978587,775.309852073089
8f447c29a7aa0c5aa2b8e8a852b01560_L_CC.nii.gz,6480.283760415554,13257213.359864563,-30363.69909100164,2163.801899641315,273.03051254953436,0.7725707259387642,12.832655813634073,4.885453453841152,97.07904529176545,0.15530671901392923,0.08085121431750072,0.9841669749081555,0.9135372545428062,-0.5910693615257921,0.9997023890801938,0.08732162640876363,77.50475201698022,0.0022564827959051063,8.862795876830793,0.8963757390824056,0.006127801644105992,155.00950403396058,6.906872090570887,609.2081030477125
9a6f70ccba8034a3d658f88677e4b553_L_CC.nii.gz,6992.156432451609,18329980.452429175,-32596.555798201924,2807.7705802029313,228.76412847789751,0.848523153436219,11.50632953810808,4.7782666246165135,84.81671862699345,0.17568618781947284,0.0991343123442856,0.986712769874218,0.9217357365356718,-0.5573874320482336,0.9996148745172779,0.0991834204327719,79.66995335643047,0.0017282674567293743,9.287069235701985,0.8905479667842687,0.005271299833944798,159.33990671286094,7.151717841212016,759.1336771702074
9bb21300e3a92937024437cacc180158_R_CC.nii.gz,5186.027185838968,18298528.47951318,44705.13376049574,2643.1062867921455,132.83991332868612,0.9039383380668788,8.540608237324214,4.492655764993499,56.138621448148776,0.21227936386530027,0.12714353918272178,0.9921926976221109,0.9402178127703934,-0.3754155146664813,0.9960815297084836,0.12307588781568493,67.51543733688338,0.0007792706495674883,10.601026175390919,0.9219992948398469,0.0030332182942891402,135.0308746737669,7.497985946845607,693.9865500302083
9fe8e9aef78ad365197d8f6ee0fdb932_R_CC.nii.gz,7958.819225420682,11955660.200159004,-45489.47426864523,2364.3515536139707,71.03300190274497,0.9415001534900562,6.185317948445229,4.046602907791569,30.44298397577847,0.2652466880123615,0.17774553943376814,0.9957490400930458,0.9555379106195526,-0.4039444570392197,0.9968921074414787,0.17913301316045882,85.9384889097594,0.0010468850817978068,10.215167507680942,0.9515397250480101,0.004112895703805978,171.87697781951897,7.334493648960377,608.8461388791789
21fddc967eb5a31695a60d4bb075df7a_R_CC.nii.gz,9091.764441751533,30041160.537253063,-168412.90647194794,2970.1197834217915,382.8085559355939,0.7671484752864104,14.748070372391027,4.935559355079429,142.23733804526842,0.15191378036070197,0.07964493855907315,0.9783564016847442,0.9033664616916793,-0.5976659541389993,0.9994106293808022,0.06775766652369766,91.8896966162591,0.0044959259449662455,7.938141056633364,0.9387178851996014,0.012400502210284818,183.77939323251823,6.364319614526429,838.2320848393462
27d4dc70d6f73554e4ead70f01867167_R_CC.nii.gz,8790.621483671499,17029232.592854988,-68318.8749792064,2781.30952057923,103.24908162747644,0.9274141211839162,7.55085804371185,4.256021620913935,41.30438971689253,0.24197653433564223,0.1593587665056411,0.9938416886032828,0.9465460400404387,-0.47319962504045093,0.9987308139094679,0.16160091412247576,90.11410683556451,0.0014850667573866904,9.736282135175461,0.9413484959029853,0.009708273934808586,180.22821367112894,7.295275152263084,721.139650551677
27de4919323355abc9dc92603fdb5df2_L_CC.nii.gz,5143.619883188314,28727650.7385415,-46460.445236927655,3779.0712142930447,657.3759983375777,0.7027433019017278,20.089627546689304,4.845586467759853,231.17908041332768,0.11565907173026764,0.05584636212664268,0.964356190261178,0.8734648839760893,-0.734086988041399,0.9998197378987813,0.042081817374809996,66.04620605192416,0.008936284551668013,6.838363181652896,0.9794482717253296,0.014298157187323145,132.09241210384832,5.677601650809685,1109.1118031576557
46ab23ec866810a4212c33db471153a2_R_CC.nii.gz,5261.865456110478,11423648.27827145,-20047.003647353333,2133.5992126526126,126.20247157256314,0.8872405780994632,8.547871688308186,4.4569819485303945,49.15991174019502,0.2065917637732837,0.12068458268278542,0.9925075936713348,0.9399160963049006,-0.4142158124713453,0.997560081343823,0.11949169590005167,68.9914505135213,0.0009430706138587963,10.26698977013493,0.9065473180257109,0.0034594022489334002,137.98290102704243,7.343619012548401,564.9504210562939
55d4e23fef777c307e27b9661c0da578_L_CC.nii.gz,5041.618790136548,11842803.157092834,6632.853259903471,2316.6149504937935,72.20468762367236,0.9393294125538394,6.3119925857634795,4.047423473740032,29.40093081297253,0.2552859990132024,0.16617017706895842,0.9956775257897418,0.9546148153037344,-0.35638782707519856,0.9943037746333241,0.1692148797766519,66.9358636902047,0.000781602502931725,10.680928781087722,0.945966612992614,0.003103740407094252,133.87172738040928,7.462700139376215,597.204909529368
65b8c8d3af382a51b3c8465be1f6f06e_L_CC.nii.gz,6832.514930373108,17714376.70234871,-77600.85724502496,2566.842698845969,142.73024339993947,0.8938614997327812,8.891111648223644,4.491570970105983,57.32429403777726,0.21025474588981288,0.12657263079748596,0.99160457015758,0.9379885588577502,-0.4379492983346875,0.9981527149300347,0.1185715915307907,78.90650368092957,0.0010875632856049019,10.095150007637196,0.9242138948229762,0.004703659805169709,157.81300736185898,7.357533461894447,677.393235561478
100d1197bd368737356f1da7fc270ae4_R_CC.nii.gz,11260.99926484712,51154599.80389494,-283588.2434053412,3591.736871091314,112.67085388707935,0.9389502612898072,7.566758378341733,4.1121055848189245,51.68390903809178,0.3419979760948024,0.27797906837974606,0.9932930875640885,0.9468916612112818,-0.6727863494926878,0.9994733303938999,0.10538884675876639,101.93457452131834,0.03659590914547528,6.794798599902022,0.9955702923837937,0.17895348208434353,203.86914904263665,5.695089290284814,926.1019312445987
443af8de1a0d47fe93e88ee1e4dfac8e_R_CC.nii.gz,8636.913873841524,23246107.735470686,-108289.67658282178,2630.7306057899987,103.17756501487465,0.9242497106699468,7.735241992090131,4.339852903309297,40.71052003239895,0.22354835998199135,0.13754739840221425,0.9938508100521088,0.9451045511662228,-0.48682508290092813,0.9989680194679362,0.131213022902463,89.46931450563812,0.0015251581632507345,9.628986660431831,0.9648439024938964,0.010373726931263996,178.93862901127613,7.226139659236109,683.4770427012177
540ab71b28752c3e279be9bad638df79_L_CC.nii.gz,9649.602942533847,28690944.759818852,-149827.14351821708,3068.896207625366,135.3925412909556,0.9155402750370754,8.47445683601448,4.497110826575447,60.46615499733525,0.2311414279519249,0.15062956959653162,0.9920064723488949,0.9408875358980102,-0.4716211827212793,0.9987078134421105,0.15265406728706032,94.42555368835436,0.0015912071217934454,9.69787945625303,0.9498949412785163,0.01060589146984955,188.8511073767085,7.186514171929949,801.0721872290806
543d36c1e4f0957fddd46c3078f21c93_R_CC.nii.gz,6499.186015795535,10286293.12374123,-5037.040667543154,1948.3513239235344,77.86915212657641,0.9226357340173517,6.583807001472032,4.1075224365012915,31.250724000328077,0.25796664474024034,0.17236154446602994,0.9953329689402838,0.9528018981873414,-0.4277945406062671,0.9977392091042478,0.1682862885588062,77.66248331294463,0.0011882551820653069,10.026573103004415,0.9387857695074283,0.005819468384949482,155.32496662588923,7.287686538340719,506.5551190125287
775b952222e22629c94c0fa606118ab6_L_CC.nii.gz,7312.1540117620425,24249776.285443615,-124929.83584175965,2752.905159178242,39.326619613148125,0.9717406076824422,4.737351570797416,3.6861020494176775,15.673252553971599,0.298902675730222,0.20666802579947424,0.9976229096739805,0.9651971631106117,-0.35001804933737496,0.9937615709647125,0.1967914999307106,81.44773065323973,0.0008639396014172585,10.734928745561191,0.9785966798932118,0.0036410762724354874,162.89546130647898,7.546861615403234,698.0579446978466
833dc428ac55ef017ea9d238cc9a841b_L_CC.nii.gz,6855.431962927938,26156933.5286787,-53241.939835345096,3484.874542548248,104.54615755980534,0.9415770175842946,7.4275344648372865,4.29723471493172,46.00610988551377,0.2369411445081698,0.14980527570531132,0.9938305350470764,0.9474879591647954,-0.39438597053116264,0.9971359618883772,0.14224314070333322,77.5253078964736,0.0007861335288415802,10.680883331428177,0.946030010542329,0.004787129343630225,155.05061579294727,7.6660829700999535,897.3551750270119
866f5f71f7cecc04d6353c3758c292e3_L_CC.nii.gz,7589.223665901948,17988523.516055446,-67284.33400139536,2700.2291097051357,86.2393292945674,0.9378710918078359,7.128089849124397,4.1992692441641735,32.82722407155604,0.23113417171699668,0.14325357901852698,0.9948309507021963,0.9490037511024076,-0.47975420861552565,0.9989640768026539,0.14810524451496565,83.28045675412469,0.0012556326678133368,9.841439927461614,0.948851660342288,0.004137280508377292,166.56091350824934,7.335568939308914,696.6171097499266
917a4de3b1f921f1c9fa98b7a61d749d_L_CC.nii.gz,4185.846650523261,20793391.98038607,91985.40852256282,2867.898891595274,115.75033594620088,0.9224325350579414,8.209047208038372,4.389526838504555,43.00930530382006,0.21362482903138305,0.12791069964501742,0.9931153608245449,0.9420422034870514,-0.31285014742969885,0.9904604644799917,0.12401866117518077,59.14217061133655,0.0006149312428067157,11.069791685748331,0.9352029651379405,0.0025824430480949714,118.28434122267302,7.570619042872455,745.9123068853695
937f8b7c688c373cff168ea6529a4731_R_CC.nii.gz,7142.559841611876,11910345.749100814,-63981.388357112744,1905.489291179329,141.61206437064791,0.8605017764446861,9.123154366774708,4.558643075608623,54.57110756250379,0.2019953494299299,0.11971755956167711,0.9916121870649105,0.9361977154756805,-0.3369716180590399,0.9905879217374967,0.11140313166798137,81.86202259849134,0.0012491084673340533,9.942806628070798,0.8734219957246429,0.004257537475135327,163.72404519698267,7.18168525836463,511.77533888749406
1289de4c6d2a9439311af675dd610158_L_CC.nii.gz,5857.447976166868,27846918.58813335,21745.00004893827,3731.534004489825,78.6063522467824,0.9587585801495616,6.514765492972772,4.11615287695872,33.09285728892632,0.25895233946217255,0.17079651440115884,0.9953163780156149,0.9533423822379177,-0.3401340770147062,0.9938493727069807,0.15510561374384946,70.31493533016472,0.0006823486933498592,11.204500126749695,0.9616618046713736,0.011753887831508755,140.62987066032844,7.787457198534361,952.5350891841524
1661e2bdcd39e86c666fec4bdf182791_L_CC.nii.gz,9412.03812739467,22001464.858333316,-128395.78687162638,2376.5188303673153,272.6578955313745,0.7906627496386485,11.483890263626094,4.766309741042648,133.64519053411834,0.19014388489674752,0.11461306011344609,0.9849056682359307,0.9233755053424849,-0.5600309317113565,0.9994856181055014,0.12449846308626444,94.26352214996643,0.0023439824986018548,8.857930999862177,0.9115049980237593,0.008810307004592156,188.52704429993287,6.8116790077143055,662.2941814746725
1734a10c08f2565315493df00a2fd134_L_CC.nii.gz,7678.645359090973,16017343.52662342,-66377.52968146752,2519.629561285777,196.23373048452228,0.8532008433228987,10.602903442655467,4.692082103231405,76.39967695785391,0.18357901149716133,0.10419279391014707,0.9885347627873451,0.9272411641111988,-0.5175154724647824,0.9992753151843194,0.10140630625941532,84.24403662395903,0.0016679746009125762,9.389353203747874,0.8880127058888917,0.007397983061977776,168.48807324791812,7.165822705734644,678.9658229425747
1860e56f068c2e2ccb2017de6e6f8eb8_L_CC.nii.gz,6637.009048520618,16825283.606760748,-44310.62673874211,2510.669785136246,142.81557060078703,0.892437059181266,8.677321661820729,4.504240343755975,64.34832273118434,0.21042914093762174,0.12576498036635864,0.9917053281971178,0.9395530337929788,-0.4033795935291182,0.9973720814454176,0.12765443888859024,77.74935697735364,0.0008533197800651444,10.441262107798067,0.9050512853338537,0.0035566213919300525,155.49871395470743,7.46118815467252,663.3713389342583
5214f4386efcea56014510f1068da2a0_R_CC.nii.gz,4849.438865668413,12031173.160103517,-18966.125888543746,2192.1187741615777,242.34835558338662,0.7996754849827525,12.170138455123565,4.862022760848442,87.7021347380799,0.15609595068184298,0.08026169754575954,0.9858864161478187,0.9172764515399249,-0.5444923723120322,0.9995020460294631,0.08544267864708405,66.04153776860501,0.0017612916242876508,9.240952653350721,0.8520059706008396,0.0052880985115905275,132.0830755372101,7.082816526154135,608.6167824362412
7923de65390f4cfe6fb047515f9474f0_R_CC.nii.gz,5675.685539512843,10993256.542261494,-9987.613766132235,1985.4892326066079,262.6406009622228,0.764476115699262,12.485528437483136,4.703479490640467,99.88961158464348,0.1618011764403961,0.08507291192193256,0.9848777342376162,0.9156448211433467,-0.5205706070069099,0.9983630487297944,0.05142557602046278,72.42111628881898,0.003824047493103139,8.134163467222063,0.8856515361188788,0.010231122543076504,144.84223257763801,6.433770187984895,562.0324583922073
18249f2f393ec3a4e59d4f3e9e7c6d1d_R_CC.nii.gz,3328.3714743589453,12935401.383427028,60353.30664338266,1688.554871929153,99.88493261330169,0.8881817153025481,6.236885229382888,4.0761030892765255,59.07619124378839,0.3086357580273691,0.22765602200208596,0.9941786973417466,0.9564001100240237,-0.3378766260502525,0.991590623333176,0.22292750849934512,54.140478687922254,0.0012251044897735092,10.32995519773733,0.9398376140718757,0.004456369366481769,108.28095737584417,7.199031749442414,447.1099511356134
20457a9245229489ee5c67af773d4240_L_CC.nii.gz,7789.168227558749,11496521.0001771,-19664.779267243262,2165.559148599031,108.00987494680572,0.9049412390215957,7.794069057987169,4.3766716972685975,44.58164605254622,0.2261906872186153,0.14021574160018185,0.9935861469866006,0.9448623784240429,-0.3214298093736354,0.9912475524586684,0.13234480003677446,85.29214493124327,0.000744062177148131,10.75872274731317,0.9495841288792436,0.004288591322634833,170.58428986248668,7.418497108075229,568.3922558864585
26571f2d2c8cc89e30059d05b4cabb1a_L_CC.nii.gz,10804.04489074622,10339526.862439698,-59187.48284707489,1596.7407705650915,88.64289082354495,0.8920445330662967,5.8982882037063336,3.994911738279721,51.3603216871134,0.3037703974515277,0.21769425139422321,0.994892063366919,0.9584328134807418,-0.33934725822391276,0.9895659602182977,0.1947030589565662,102.1118184886674,0.0019685322779642665,9.821231678533861,0.928602527398528,0.020042843826906322,204.22363697733513,6.9231531359842835,421.34591534715923
28605b2b2337d1a4aae65900df2a36ae_R_CC.nii.gz,2958.152852977814,7981186.138450312,23712.219546043525,1282.4582681642655,38.88342175710903,0.9410258705956989,3.320494252322584,3.1723753121415355,27.332510372730038,0.4033289364856091,0.32479321097787295,0.9977951301130896,0.9760077944506667,-0.3863569667461584,0.9946515614624154,0.3148695255698645,51.45143442541612,0.0018042438754800588,9.824690050468703,0.9611113113108036,0.005702168000491665,102.9028688508323,7.108924329281022,330.33542248034405
31937d26eec6ebdceb4c4d676fd06018_R_CC.nii.gz,7403.370171745182,15587574.898972755,-64994.37377002327,2454.0279904547433,67.87488003794076,0.9460096146035561,5.922637212792117,4.020777798686708,31.160986177038303,0.27317382167612436,0.18364667421699005,0.9959544521037764,0.9573943808375905,-0.3298656885883,0.9920337890255833,0.17507722595737463,82.50332054434658,0.0008707542582990023,10.798522932534345,0.9484577391364994,0.0047358835116770095,165.00664108869256,7.505858821180606,630.4757176231714
66235fe8968ef266cf15b08cfaa4a40e_L_CC.nii.gz,7916.813104097484,15633104.977408072,-75578.95215667854,2566.7211894291872,295.5090466378083,0.7915850885123834,12.975172705170774,4.745214142180666,118.27968013702127,0.15874348921011444,0.08545332674647879,0.9832463320843692,0.9131885422044452,-0.6816812677631513,0.9998567140375694,0.08648352184110936,85.72276558052653,0.004343780004096841,7.889416811867001,0.986808344649688,0.0087427360056926,171.44553116105314,6.3620083358277535,715.5575590167489
68107a7fd1e370b88e161f37cff1c2d7_R_CC.nii.gz,6954.571915812575,13589843.820946082,-18232.993993009048,2282.6168786826825,57.85692680517701,0.9504141393801275,5.6676035345672355,3.9425651627905363,24.138424414467178,0.2737935574796551,0.18369422170285185,0.9965236877235003,0.9589047585002369,-0.35039508861587604,0.9939221575379776,0.17608749771253684,79.98953292558834,0.0008222564709075783,10.676016542241827,0.9560761144503293,0.003746624588654988,159.97906585117622,7.484617080485965,585.118451371967
81885e37a9a42bd351516b83bc3f6d66_L_CC.nii.gz,7695.727489312264,41925863.774104215,-132867.3126935179,4553.96412356431,37.564614279617416,0.9835711710280427,4.275686129655634,3.572301360413114,17.511291636729197,0.3564213171149434,0.2755384434364277,0.9977342367973595,0.9686885097313364,-0.4209568053778633,0.9976683898121703,0.23784285958493084,81.0341072119727,0.0023697780355029377,10.593922742491598,0.9852930616453298,0.039855733054789,162.06821442394553,7.695375015757951,1147.8821844609813
91489fc5a74d1452737d06d7113837f4_L_CC.nii.gz,7865.128645343186,17408715.26204086,-81212.27921034979,2662.0594154957307,200.96767769524402,0.8591662591664103,10.715681309118388,4.726339185924135,78.59980345887678,0.18034388227849674,0.10069541335028395,0.9882838823895445,0.9265738314625194,-0.4718522228937245,0.998761298422692,0.10366825136887983,85.14498651739427,0.0012958325025078238,9.756163705006585,0.8818732537743639,0.004982338232579608,170.28997303478843,7.2219571867755326,715.7567732977448
91489fc5a74d1452737d06d7113837f4_R_CC.nii.gz,7240.723469126706,24253517.325045165,-103457.42146442935,2850.0548490778315,258.45878247384525,0.8311577397194563,12.567384844949775,4.814772586201384,93.07915753908264,0.1560096596232236,0.08018637323640704,0.985008213076404,0.9149211238578476,-0.6425775388696636,0.9998205513517517,0.07217753442131372,81.19220867265389,0.0031276862212105986,8.381471228067909,0.9540304394302548,0.00807364490363201,162.38441734530795,6.710831242423216,777.1284078879199
658602d790b802fb079fe5d2eba494dd_R_CC.nii.gz,5631.969561995139,23311912.975044772,-9245.69446563527,3489.6459206182053,291.8515443440536,0.8454219327908082,12.742335710455452,4.917560634930311,110.2252433618284,0.16732014054408467,0.0911313209346497,0.9833333610901676,0.9148812857771133,-0.4412034610486023,0.9979417876710026,0.0766702026478347,69.51307742872143,0.0012826314539558898,9.769798525692702,0.8732916673516627,0.0045911111768404895,139.02615485744258,7.444767557763262,945.3743662405652
792610d6c4044d3a4e2cfdbc5b494768_R_CC.nii.gz,4544.084384137146,24502256.24328189,7406.416578380903,3375.8415401557295,180.50339948097007,0.8982452218206123,10.580786756365441,4.669866916858911,63.26723990310516,0.1674577019176234,0.08835829369588326,0.9893722918014346,0.9267529782287094,-0.5422457539510273,0.999600613291336,0.1025427936295862,61.198366365769566,0.0014093136734964734,9.597406073426185,0.9180670183299176,0.004338187766112058,122.39673273153915,7.410892398195548,889.0862349091751
944072b1af80b5038a0434d689012b12_R_CC.nii.gz,6950.45268000371,10532950.52733744,-43329.97944216756,1816.5325682450782,103.11340699552319,0.8917525646287217,7.325801775156301,4.300857466482305,46.93397698263978,0.23933005723209974,0.15313544856323696,0.9939111939750975,0.9482081862619833,-0.3437689437825246,0.9932115840526207,0.1572640860928235,80.75883336241422,0.0008755566996358067,10.553111544959615,0.9066364021274523,0.00511791083765289,161.51766672482847,7.29969589095356,479.91149381015066
4141898a609bbcdf7fa4e9b49188514e_R_CC.nii.gz,8729.773008016047,16361685.731130298,-80653.84021560609,2288.0952249208594,144.02242199009814,0.8808340033059714,9.075318705824628,4.569782584864511,58.419679488737444,0.2071462017722856,0.12617088620417408,0.9915107600573614,0.936645525370531,-0.36540302089953486,0.9942191374100257,0.11914978629243059,90.51892394753051,0.0011245748793135418,10.047570797286976,0.8952208901938984,0.004664763002295242,181.0378478950609,7.2893749182270025,608.029411727739
5683854eafabc34f6d854000d2ac6c2d_L_CC.nii.gz,5779.614284583253,12252914.511233732,-31539.9285350015,2122.2189817451263,77.82862316748948,0.9286723937988534,6.830631181955079,4.130727354112664,28.36584343748547,0.23727632838648244,0.14803916022554237,0.9953253857077156,0.9508991438749872,-0.3977920388884298,0.9966447386212711,0.14149107608730122,72.5841610346169,0.0010605739695371181,10.238897058772572,0.9602367613877208,0.005138318809549113,145.16832206923374,7.365928685820084,550.0119012281536
64072568aca98d15b344eddde9ddf8be_L_CC.nii.gz,7967.736641236417,27311365.40220664,-87702.53040012067,3204.2383410248704,273.2082155574211,0.8416083142648727,12.191608205890642,4.808484339036284,107.79993035756608,0.1880938400278866,0.11453570773977059,0.9843029032473769,0.9183656102348872,-0.5934018683543423,0.9997129965413997,0.1060590387632854,85.05407354869196,0.002358871205667071,8.863855067011478,0.9129365193415924,0.011612670297172065,170.10814709738398,7.034774396986669,869.3616391455735
94522717c9827bb41fe0814a514ae68b_R_CC.nii.gz,5393.339836032072,18240293.058387324,-12505.839977127773,2913.8849141730966,194.0389669900601,0.8742036990561977,10.881205245398817,4.691864975441193,65.20235395798937,0.17618561648192854,0.09812440629249115,0.9885799771827897,0.9250723396036271,-0.48847728317850236,0.9992445036730143,0.0932557166497871,68.65273768058519,0.00100571882066946,10.093474080283052,0.887843778600798,0.0033994759774122352,137.30547536117038,7.48342956659212,776.9809702907888
30531093985dd9b3d909c3866c46e443_L_CC.nii.gz,8113.640587518928,9697240.471960817,-28973.757915539893,1915.15978034152,44.650416085476564,0.9543153815030891,4.982311581267615,3.7719237770480367,18.775755323310666,0.291477267213177,0.200500725022698,0.997308613300481,0.9635602680150386,-0.3458429487214098,0.9930298480681838,0.2003415980126821,87.44125646240563,0.0009038958619335287,10.496526080249748,0.9591544004562155,0.0035500248624782587,174.88251292481084,7.3401049622568975,489.95254910674964
93514476602890f55d1758d1f3e1a9b5_L_CC.nii.gz,6572.636152611614,10837439.680784183,-2803.1527977435935,2053.7390492888503,124.45654235904263,0.8858716063506767,8.54598517382899,4.451350599038569,47.43030389949293,0.20668526518794578,0.12176942091746151,0.992616236472087,0.9398429357869593,-0.37154277786084616,0.9954479985426383,0.11709424075872071,78.04037827360801,0.0008669797277442188,10.426413541053783,0.9048207005282989,0.003479306818165138,156.08075654721608,7.356928528806331,544.5488979119741
93514476602890f55d1758d1f3e1a9b5_R_CC.nii.gz,5803.717078397713,4485312.38000235,-8832.072603287113,1063.7013136546736,68.24337085291141,0.8790640244407375,5.871091857780305,4.0321026952431644,32.42542614461382,0.2780855002310508,0.1898350664691525,0.9959344080715695,0.957809385887376,-0.2331596835806966,0.9647995749260968,0.1847212290511005,74.5308592518528,0.0011786966993901891,10.590102125222081,0.8860069922804737,0.009084406648683735,149.06171850370578,7.003690667116641,282.9861711268958
a4e90efc3a2dc8260b51e7f0121ccde3_R_CC.nii.gz,5727.728049277201,14731695.237109415,-11124.874512841636,2616.222731615956,129.83405567247135,0.9044893934689378,8.60000777700494,4.478590835296803,51.87479793991909,0.20931315090386304,0.1251399938048999,0.9923159129688542,0.9396661359887052,-0.4320063232588911,0.9982027616443645,0.1271881114722221,71.45520553871276,0.0009239927982562428,10.269422556988506,0.9487854313688393,0.0041357124711635315,142.91041107742544,7.469978914812803,686.514196822106
a9e5db3e9452823f5753c401087c9544_L_CC.nii.gz,8251.459079591907,35622153.29408225,-118768.8352657707,4059.4295296542523,64.51154002652447,0.9685670166709127,5.749672067597669,3.978162986847683,29.028732188843083,0.31019103646057655,0.22712994197265984,0.9961327712436608,0.9586011484206435,-0.434637234540166,0.9980820443724864,0.16554067936844846,85.16155667049648,0.004565107130410661,10.234575979118087,0.9715215776126617,0.060878872250865766,170.32311334099285,7.50950839351824,1030.9852674201932
a4046f021f9de4265a5c01ae953b9f09_L_CC.nii.gz,5735.911155332809,9465695.77777897,-5906.495613408499,1812.7242346133671,140.51703711973258,0.8552971220198886,8.637852265898463,4.495168147208796,61.52553028479711,0.2144958748910813,0.129612547170759,0.9917543213681876,0.9398134619535359,-0.3810131747350799,0.9959497507467313,0.12837591715903413,72.92289187861152,0.0008921588578492222,10.3730185606859,0.8910011558327829,0.003510157612327194,145.84578375722316,7.2713243024053185,488.310317933276
aa8149ec929a0194c2b8871de84e8dc8_L_CC.nii.gz,8069.336462086574,16139165.127507612,-55434.794056782324,2512.647998376441,212.36909610630883,0.8411280863021207,10.301812725645751,4.6610985780251175,96.36976740395973,0.20244424713907455,0.12153730699047297,0.9878554627263597,0.9300922581599985,-0.5140997335460791,0.9992558257691768,0.11337178414649554,86.56553548723184,0.0016341095424269368,9.461958716710013,0.9037165208282913,0.007747683840264929,173.13107097446357,7.184004194931982,681.2542736206876
afa8d58b60cf82ce642d5c917fb6c8af_R_CC.nii.gz,8744.48682368018,30280205.640507787,-144914.2704972218,3646.9680984441848,307.60589190809293,0.8413882361959204,12.83699244330624,4.9551383003808445,129.06627723125675,0.17608195043021524,0.10119930927674725,0.9824950277820363,0.9148220290043994,-0.5465462463989699,0.9994952647582529,0.10249965379192655,88.92860818496688,0.0019463448996454393,9.207721954052587,0.8905655995031536,0.007845444382428455,177.85721636993372,7.081805728333452,988.6434975880695
b0edd960e3f8b68ebf6debae183a7caf_L_CC.nii.gz,9047.732745274463,13345122.670148449,-81366.3196402481,1847.0437622915713,176.36352962776863,0.8238088359799836,9.946300747783717,4.6738852739792645,72.33672838362412,0.19598580660905857,0.11582598647383543,0.9896792290066798,0.9313934137932272,-0.4141794381916514,0.9968031869577989,0.11502179397464321,92.89803276237063,0.0013603292779873668,9.699391246035107,0.8857874748228095,0.00540372632633669,185.79606552474112,7.01068265146197,505.85182297983465
b4ed83d02fa675475155a5551f92fd1f_L_CC.nii.gz,9309.754199647195,18211106.407278877,-63054.721974121276,2951.6506646017824,60.09158757159748,0.9598635042215418,5.608002028546579,3.9475016412164714,26.628625003093983,0.316438066995359,0.23394533305254833,0.9963925885671181,0.9594854756710749,-0.39633810636219624,0.9959918602874374,0.1613147759919135,92.66458223555321,0.006388774180636811,10.002623703147254,0.9684319656141103,0.07341048444174231,185.32916447110654,7.243786443528423,752.9355630433445
b4ed83d02fa675475155a5551f92fd1f_R_CC.nii.gz,5704.860205765436,19901226.305771645,-13038.049946827265,3033.222353645836,390.544881617061,0.7709816296358518,15.250548158864353,4.762814412692442,138.99597823869408,0.14395005071682648,0.07093040634770116,0.9778334956248291,0.899914515289371,-0.533769187371389,0.9986532216600931,0.03695675199183551,71.01577349333004,0.0037651120355950297,8.14802718823788,0.8292356486782096,0.009494894614641897,142.03154698666015,6.481337519275505,855.9418088157239
b8acac150be7f949f78dc631a3851f8b_R_CC.nii.gz,6922.469244785834,29749191.31286164,-34087.72141077367,3964.4725175409244,104.4897376718852,0.94838664815289,7.294209293789155,4.2814835297778355,47.162219205468645,0.2522050349037662,0.1682681756643324,0.9938290423572363,0.9485236408685425,-0.3746157756353892,0.9962654947917389,0.1613290182951015,77.1826136711502,0.0007402143879968907,10.9391458240758,0.953675242758239,0.006077325677078496,154.3652273423005,7.741218029394066,1017.2405638032011
b365dbf9c6878c12650cac3bf8095e59_L_CC.nii.gz,7123.948376640765,28702265.683774594,-44400.6385519901,3614.2404787403434,79.38397519010361,0.9569254354899119,6.737767811083559,4.169924450581527,32.230036702092775,0.2531276198598375,0.16752052115094476,0.9952323803422534,0.9516992469976356,-0.4591629220565747,0.9988545766044551,0.16413832603892417,78.99446639007066,0.0010487766495895375,10.246161232044535,0.9614876906889799,0.00659384434565054,157.98893278014143,7.601033226821954,923.4061134826128
baaa3be716640961a62abcf61bed245e_L_CC.nii.gz,2644.9103007545564,10542957.047789581,39707.872497513796,1813.1829609592448,32.207217778991215,0.9647408271941563,4.218843466454793,3.505636207759566,12.967323527672132,0.326840621386905,0.23756011714561698,0.998050140504078,0.9688601771665502,-0.40929718276619065,0.9963753784737406,0.22567878295134056,46.90032396206796,0.0014475348121732083,9.962088722147055,0.9698067624663633,0.006663554678957171,93.80064792413589,7.279855920746404,461.34754468455856
beb4eb26bfa74853d4b49172855eefe9_L_CC.nii.gz,8396.632005190335,15260376.821825555,-73514.31100918344,2278.7384813701183,76.37209178244049,0.9348644037530692,6.446213671043385,4.100637482100928,32.68032581568182,0.2554088343795615,0.1666224703872953,0.9954306913210188,0.9537794482611719,-0.40637409372579897,0.9969642843519543,0.165639724246523,88.57697870837454,0.001138201415248867,10.121583798063568,0.9471586193999665,0.005516090011571879,177.15395741674902,7.313704758002775,588.77764328814
c79e16f69c355bad0291d281d674f53b_R_CC.nii.gz,7717.068326167968,16607444.639054108,-72162.78603330413,2319.3311997161322,48.69116898365689,0.9586143085151666,5.08482161869987,3.7924299656249207,21.413176224783587,0.2920047001851369,0.20095418206281598,0.9970789347894663,0.9629537396013872,-0.34624571108379953,0.993238526455528,0.195901508656138,84.55373747235762,0.0008856214870724612,10.669339999872527,0.9607321760114176,0.003536864191667045,169.10747494471516,7.495011126359955,592.0055921749463
c58988888abc33489a6c845a77d7793e_L_CC.nii.gz,8901.433408807443,19709204.799079202,-104996.73544836103,2067.326663659488,183.396713819924,0.8356368623085475,10.533260235690152,4.533838615110134,68.71075119844448,0.17438019773159813,0.09513876842730692,0.9892440403249217,0.9272172545216357,-0.6104158186972886,0.9995014267526989,0.09475845882607276,91.81654147104433,0.0044796640338969455,7.870177429086132,0.9442547096037173,0.010249855379136072,183.63308294208875,6.263060699883944,562.6808443698528
cbefbe019b185313c639fe5f8fac024a_L_CC.nii.gz,3893.7680387562277,26895844.6455289,-499.2672512035397,3474.904081999046,118.56454118626499,0.9341282668354028,8.20035724673829,4.402909605783719,47.27763180798605,0.21546766034099532,0.1294288806465423,0.9929642646144657,0.9422278701030874,-0.4738578220038238,0.9989908056554098,0.12731897252415852,55.26901081034168,0.001093798726718867,10.042347626407485,0.9549653024557426,0.004324336561022293,110.53802162068332,7.494105607649422,898.3671557963282
cc608bc4a299b3346c04379958797c1e_L_CC.nii.gz,5509.791537627458,23430114.768006235,-69239.69160458069,2852.6506880375273,89.53116679828332,0.9394342858341126,7.265171057232718,4.23721995697934,33.78367699831548,0.23044413948624926,0.14351106694678353,0.9946375239199041,0.9481017277188158,-0.4365004864272287,0.9982970243005764,0.14417610804161785,69.41900826609293,0.0010114845058761357,10.245394253039429,0.9523607214654193,0.005051283887298062,138.83801653218603,7.507800217627257,735.5454637089531
cf399797f9211774fdb1470bf4ba5600_R_CC.nii.gz,6919.302432264221,18479268.64268516,-69978.94099216988,2425.413031612532,87.72979749455686,0.9294602051057056,6.783460066864372,4.1396867625780525,37.60120838209622,0.2528673719906873,0.16488281077736267,0.9947784173774299,0.951701854461778,-0.3804721442201828,0.99572482311311,0.1614245788116757,79.59046467934552,0.0009334129481002077,10.490007955110272,0.937313696033931,0.004656675184798267,159.18092935869072,7.461690950268684,628.2857072767724
d101ecbe883dcfadae08720d3742ee34_L_CC.nii.gz,6165.287668983889,31365958.531335384,-108815.37884137101,3672.225486206711,485.1164984285803,0.7617855167910479,16.60327690879822,5.094010317944383,184.12438873257582,0.14586123103646462,0.08034452542190193,0.9730639659915812,0.8932851094498226,-0.683798454015165,0.9998931985039902,0.07538774190694869,73.25636303542257,0.003736944970785603,8.137766432437394,0.9356817340504826,0.01016263392980547,146.51272607084513,6.623830034909005,1039.3354961588227
d540a38fcac9ff0136535fb45fa45dda_L_CC.nii.gz,11034.657999478342,15884978.751217203,-98946.60588646855,1750.803601888552,125.42238895039215,0.8622380170924755,7.559234519926207,4.2858156220532395,61.86574743814802,0.26406730529878636,0.18178737106339216,0.992704805819935,0.9473719373491698,-0.3587462762932105,0.9913120188619873,0.15974802827611106,103.09194770624867,0.002202048768056884,9.70703909794262,0.8875073529345987,0.024626183515384197,206.18389541249738,6.8974587579460795,469.0564977097365
d51872cb860414480dbedb3733e70724_R_CC.nii.gz,8584.16352885833,15665614.815166319,-100929.07468548306,1896.1384928038647,160.75995178058523,0.8395494436063996,9.403821707632114,4.568236338374147,65.64989786705509,0.1985426267894983,0.11619599014248744,0.9905949967801027,0.9348377425488048,-0.39290493608027255,0.9957128750686163,0.1226700260604652,90.27731374093025,0.0013136518455097576,9.891660953574384,0.8780945923738926,0.006330795163798801,180.5546274818603,7.022945177961044,514.2246111461122
db3c5cf7336cc061ad5679d2209c2386_R_CC.nii.gz,9232.000727936807,41486734.254419066,-173620.21652144642,4272.097736192422,300.4378835262597,0.8678017202600008,12.300834034406144,4.899088675184396,133.24220633064363,0.23194030983056768,0.16677262362348233,0.9829451959026909,0.9186158826360057,-0.5579625877385188,0.9994861749128853,0.11640158035737318,90.76667568346446,0.007435678066032142,8.929166343632694,0.9046384667718825,0.07165663040498572,181.5333513669288,7.002983031241821,1143.1339049296712
dd1959e485eccb3a17f29d7020fe3b23_L_CC.nii.gz,6211.47668139748,14765807.97565373,-36213.3657377014,2419.817095472685,159.04845390823107,0.8761597728517905,9.753755633155135,4.594965156992616,58.91513209031669,0.18596243261386095,0.10387863627587693,0.990604109831454,0.9321420531174149,-0.4667149688440738,0.9986241350855376,0.10550340731750384,75.14117515759187,0.001341343972896898,9.71128541094023,0.9093477195313324,0.004297814707190406,150.28235031518383,7.278882783856799,644.7163873452299
de627023c9a8f2ca7b998d4f1380fad1_L_CC.nii.gz,5249.74980297497,16553777.21134864,-25911.14316765384,2480.160367972286,74.54709347006619,0.9415549180554081,6.596803063453784,4.105622994709764,28.403372249975824,0.24265214025539456,0.15296504623206347,0.9955305009305434,0.9525344859228887,-0.3299805529759349,0.9925026877675229,0.14982595311798058,68.1786072396726,0.0006516297371074863,10.994603419727095,0.9458619408708666,0.0025764091802500362,136.35721447934534,7.590976560290672,638.6768653605889
e9be27a62325bea2255d3327274567cc_L_CC.nii.gz,8040.832263164053,21534203.49420857,-112139.23652978819,2501.1900652902386,185.55243364737527,0.8580965400295298,9.791046288970984,4.59644684860612,80.11342510658874,0.2063189832447499,0.12590815165908592,0.9892594369920161,0.932910200036974,-0.4520707521638137,0.9983264491268391,0.12390241532606365,86.37772300577542,0.0012644510647158787,9.865910408966824,0.8862288852034367,0.005009141013638217,172.75544601155084,7.234105911771902,671.6856247344028
e668b1bed3d1501af1c88ef1ecd85a8c_R_CC.nii.gz,5856.113737245407,9575973.450676415,-10814.456904243909,1914.1842896013272,198.11269420712028,0.8114108162112857,10.89188296400413,4.3015965371053815,73.58229042285623,0.18544940751331146,0.1032519098901398,0.9883769100725973,0.9251464526803673,-0.29051808025886516,0.9773323468321412,0.04452312420345639,73.66731365631472,0.0019337681532724945,9.319222829751988,0.8312104953257962,0.006263078622043986,147.3346273126295,6.605966710983909,528.0742459521125
e22442ff5a7632d5fc91d2715319b448_L_CC.nii.gz,7467.593358359374,28134960.653503835,-169385.79598546,2931.1088729390285,226.0993568305568,0.8542850499429087,11.200591775748636,4.656035022481885,93.42475089591076,0.1818740791697312,0.10279597278560418,0.9870109873353057,0.923842659705019,-0.49642949594993,0.9981174744145717,0.07317625920840745,82.40857295069114,0.0030906339912152164,8.480550959297283,0.9095357388222239,0.010785528008185184,164.81714590138236,6.664862835726522,789.3020574423965
ea75b79a86ae33661802cc9f2ee5d938_R_CC.nii.gz,6191.987436578359,13748473.010112384,-12060.200922807287,2336.0714630309435,154.1491425516174,0.8762782716811686,9.602314056145769,4.559541774757312,54.92757273637152,0.19226423153007632,0.11127909788943113,0.9908735566933634,0.9330989389691947,-0.4782201054206633,0.9989263870383033,0.11316189984880437,75.14164384063308,0.0012617240343378426,9.810478427066997,0.9022746740860046,0.005226105543648017,150.28328768126605,7.274805753769066,622.5551513956397
f6648f91c1486446d8ad32cdd928d977_R_CC.nii.gz,5828.420515260925,31934419.622658007,23642.052922815383,3918.1231435459476,157.91664291555912,0.9220480155105804,9.842616574548078,4.606543413817684,54.779949212344846,0.18391496225318607,0.10291636611548577,0.9906401705571481,0.9314365656432633,-0.5213231398013917,0.9995315404713121,0.10986150715768833,69.91465455572126,0.0011524708744756684,9.912303212027666,0.9358204291643728,0.004606014110515761,139.82930911144237,7.542660471852105,1019.0099466153745
f7189d58dd1053d7603348360f013070_L_CC.nii.gz,8696.021712153555,20372419.315547615,-89144.95339009586,2812.9181616836077,76.8278904327779,0.9465746665501317,6.335881804336124,4.117159101508751,35.41376654408732,0.26641799182644027,0.1802314904162505,0.9954130268188339,0.9546469081626788,-0.4304972568012139,0.9980140529641602,0.18179184553415265,89.50874693764989,0.001201396934249082,10.146672170476156,0.967814002050346,0.00834747011732953,179.01749387529952,7.388676574094681,722.4365130290969
fbfb4853334d90ff774ef326b8ac107b_L_CC.nii.gz,6608.401046975733,40025455.17869531,18206.0265852222,4927.655390025224,56.13627948574071,0.9774235822216251,5.445474722459297,3.8907569098274237,24.514146129098425,0.290376007507457,0.20182396521464996,0.9966313582052597,0.9605362126982548,-0.404078902829725,0.997478033892677,0.18667281490075616,73.41826404159859,0.0010318434430288605,10.713389857608194,0.9798438043245082,0.014665610534381026,146.83652808319673,7.737493320091373,1245.9479173777418
0a3018e7ad1d1d7d2e142c2ca7c518fa_L_CC.nii.gz,8743.781713535416,30928031.667057123,-135697.1369617174,3426.8214042622235,42.851853225823625,0.9750535440680137,4.6646772914381325,3.7107928704231177,19.72075999787011,0.32790525079888133,0.24195732968252054,0.9974192481419417,0.9659326352155332,-0.42951810437518273,0.9979412674320196,0.2114526892291359,88.8690867057897,0.002217446395555329,10.226442717238239,0.9796560472313491,0.03440217539177982,177.73817341157934,7.508861912177872,867.4183143720122
0ac8b6988e7443dc5e45d601a2f813f1_R_CC.nii.gz,3786.2625489368784,19176410.795221448,85470.27877300992,2671.8200018624593,194.96087299126228,0.8629863648087376,10.647135247957252,4.6995513070732535,74.1258501625301,0.18821960944277488,0.10879603171464475,0.988594211322645,0.9268602316131476,-0.4297442051027698,0.9970778327766224,0.08523023924253666,56.27443799931169,0.0016384593113564373,9.494380105032466,0.9010811935055336,0.006347237619021025,112.5488759986234,7.237370199392438,716.69521871343
0b86a34d84ac7587f7374589268debf3_R_CC.nii.gz,4203.9278550383,11035358.30397803,10341.38660054099,1993.469719462423,130.56498084781117,0.8763270973260912,8.567715113869866,4.445329125786092,51.79883690901981,0.21019373525295837,0.12564565429352006,0.9923193867954441,0.9399135279585497,-0.35139499158686727,0.9931433339880598,0.12175085855406909,61.140451076329214,0.000977836233153556,10.296467389148647,0.88679533954477,0.0034585009453223835,122.28090215265838,7.363928166747897,531.0086750775583
0cc015fba720993209f0b8843ff98699_R_CC.nii.gz,9702.776749474757,24293301.45828055,-132393.2281537418,2596.108605542803,188.95664383469511,0.8612341112528175,9.715486747516955,4.6415702028312715,87.13234787141437,0.22172415943107393,0.1446916856392203,0.9890720313100652,0.9336571537273988,-0.4373303959669881,0.9977619361683036,0.15175073254812166,95.39485998372348,0.0015662936940397131,9.777065789228939,0.9061378831988547,0.009596795947463073,190.7897199674467,7.133262833842907,696.266312344375
0e950d8bd73cd86c25a287e2d341c7ed_L_CC.nii.gz,7732.314056535652,12516405.776190491,-40397.32046216337,1903.6020697676233,291.22217001999906,0.7342462121415496,12.891758040459692,4.871339351663686,115.62267958103203,0.16373239250349214,0.08929319512557618,0.9833993530740207,0.9136924583431664,-0.5151188176303009,0.9986393995388672,0.07417180514963874,85.6095933819062,0.0030200469971615037,8.52094499302514,0.8522897212671243,0.010507954723702084,171.2191867638124,6.692422839007505,548.7060599469056
0efca57fad3aa67efe75a11edd765472_L_CC.nii.gz,5865.967911489014,14320933.862775145,33502.19730250308,2622.1169990158705,210.68215070940187,0.850969246842376,11.093353971415132,4.811479103998399,82.5296817566788,0.17837896427965666,0.10116326841097062,0.9877247459618224,0.9241149715794159,-0.49997296948266323,0.9990925932047346,0.09853741912427386,72.54564379026851,0.0015229327629161093,9.475943278609332,0.8862751952869343,0.005148894179420012,145.09128758053694,7.185738468560976,708.199787431319
0fbeb0c0568911d2e9508e1eca010a32_L_CC.nii.gz,3567.1865608820226,16572507.55454988,37255.33205322228,2561.356755569982,58.69314297975257,0.9552391415224732,5.771106305921942,3.943382013492859,23.3364644743426,0.26962393252825223,0.17982949703277235,0.99646637490859,0.9581549961533116,-0.3774964723441553,0.9958949698203797,0.1764701817262357,54.23557036553253,0.0008851720487755443,10.569869773032615,0.9568461635862056,0.0033789706057750224,108.47114073106506,7.537086857486548,655.0124746374337
0fc1c717e341236455554530e64124e3_R_CC.nii.gz,5542.269259376022,10287945.986587562,-26524.566807113737,1951.94901948421,207.48379568593387,0.8080006125209181,10.702288959127518,4.7341356528235154,87.73488046493637,0.19191015716085466,0.11279872222964792,0.9879573727729387,0.9269339621742557,-0.47048567176336187,0.9980571053615076,0.09813475370544716,71.45650146829928,0.002183908975002477,9.031456470458298,0.8597186836976509,0.008587275743862366,142.9130029365986,6.96221493475161,539.8582037925356
008b8e61390fcb4c0873258c15b0a53a_R_CC.nii.gz,4940.651061163384,18056740.70786739,-46980.651554319695,2688.987140040058,48.07391003988017,0.9648982837213029,5.292969208577585,3.832945555975623,18.855880518027256,0.2761322609573308,0.18421464343883878,0.9970986818600592,0.9613304775797578,-0.33328939591288814,0.9930344379492421,0.1848494300534182,65.42492181265813,0.000647068387945992,11.024564655039866,0.973276765885628,0.0023715226871693232,130.84984362531614,7.642988316194565,684.2652625199844
01c3c13f0b852aed00b5147c21d0e649_L_CC.nii.gz,8973.92285295632,21895969.6675761,-97655.19948222989,2963.2603720699117,250.71458114917934,0.8431690634859498,11.490475664242307,4.920482606970925,114.3241983719569,0.2014307852134164,0.1294631048943361,0.9856272177032851,0.9227191272325245,-0.40146154874303935,0.9965108174763119,0.12494170910887091,91.07997305036224,0.0014586821696655487,9.921058759528162,0.8680715950902358,0.009538922835288257,182.1599461007245,7.302756239013831,803.4937383047729
012e0595adba5173b6e60a97f9e84b6e_L_CC.nii.gz,6758.441117164149,21953663.159802373,-72222.19087531205,3066.328459050742,23.463153397312233,0.98479227500645,3.6489773332608397,3.3554835387219577,9.695901023982676,0.34276242334671214,0.2527832107965405,0.9985766019952689,0.972832661400023,-0.4097114575995763,0.9976353238852311,0.2521024211416446,77.44485688128951,0.0008610832396998793,10.598425585608801,0.9871907630051651,0.003475197008580268,154.88971376257905,7.67565164966063,772.4479031120136
012e0595adba5173b6e60a97f9e84b6e_R_CC.nii.gz,6528.625063943561,5002376.964735837,-27671.093823339666,1090.4756456785444,57.09449574623612,0.8997193909947891,5.3874877585352925,3.8657064787117266,26.618821071467696,0.28005797762836493,0.18928293044179056,0.9966006963386891,0.9609990628998386,-0.28829808436824444,0.9812777806589549,0.1992902115867573,79.18496053813858,0.0012594974441441575,10.209383412096871,0.9111568363679627,0.004235903456497883,158.3699210762772,6.944160371231657,286.8925353561947
0246c6050121c176d2e8fcf91f22f926_L_CC.nii.gz,7282.743921043942,39235368.49821633,-117907.58536209099,4009.091274146518,99.05549583253624,0.9518534620201659,7.13995828781094,4.254384711973163,44.06456799022757,0.2582768079432899,0.17528566302564766,0.9941292965532552,0.9494754639460684,-0.3703424171856055,0.995865424041102,0.16432615433402656,79.4051196666517,0.0008753636210925041,10.894915978277515,0.9541564465978145,0.007989267102909252,158.81023933330343,7.723907416031852,1027.0366924947639
030561532b801ef4b623657ebee557bd_L_CC.nii.gz,5116.170609383003,18983424.286940083,4102.191594712625,2784.739750245555,37.625301161876735,0.9732964776312253,4.581725358876938,3.64367794499709,15.616736046889933,0.3052947300296329,0.21313638388564124,0.9977272724197834,0.9663144429008466,-0.4099060858145013,0.9975772787542457,0.2046709659582752,66.55343874078767,0.0009327053291580138,10.516464456252654,0.9764070131965985,0.0046197498274965915,133.10687748157522,7.633786969864863,705.5912628518572
064741fa1cf1c410df6bd8cf69a64acf_R_CC.nii.gz,6896.3041122538625,19408210.328976553,-67973.30636982627,2976.3684848135667,105.43327166013101,0.9314335355607536,7.763171734443441,4.292240547825658,41.368846883452406,0.217640049858866,0.1299562762240288,0.9937231953182064,0.9449905321150904,-0.5169890016280515,0.9994166097403443,0.13866877823623447,78.60361875953777,0.0013288182516920984,9.710213724298647,0.9583358660366506,0.005087085297889874,157.20723751907553,7.3387649872832625,770.4504391184234
08ba91bb945c4dbc738b3f0a2e5798e6_L_CC.nii.gz,5750.251130384813,15470147.602945238,-21844.707684303685,2288.02496250366,75.07135414034435,0.9362545117061511,6.446325643098985,4.101412383326051,31.86163320803114,0.2485427413911001,0.15678874713537455,0.9955198453447456,0.953699274470334,-0.39891951139579096,0.9968526673051907,0.1454461126641403,72.08976243020581,0.0010373611017500607,10.278724707482667,0.9443441765283809,0.005171556508056593,144.1795248604118,7.415028132670024,590.7740791609999
08d8818f81810c7979df66dccf549932_L_CC.nii.gz,8627.499226707734,11065116.569610117,-54792.0078498012,1893.3128670302806,64.58590009236845,0.9337421411346334,6.1048535583994505,4.049651407887975,25.89394750308508,0.2606992380259393,0.171858513814219,0.9961170993950207,0.9558597555131523,-0.2923615286147521,0.9863409733429379,0.16388573200660783,90.38959273598121,0.0008225917149821335,10.832764101057005,0.9377996843959653,0.010267356456940163,180.77918547196248,7.337172042592901,489.4746917806613
08db0293a555cc089d14e6357381d42d_L_CC.nii.gz,5902.371570567244,13722763.623928476,22221.738439271707,2441.8979375130607,44.67914272388653,0.9639480666096328,4.733371925419256,3.7224665396535466,21.06145755029278,0.31409568834442514,0.22603222958696656,0.9973180789345125,0.965479523224944,-0.3430049138459166,0.9932725711301669,0.2211161491093981,72.82183774494486,0.0007765136766977993,10.846846948327897,0.9715840083027618,0.0028648393060818423,145.64367548988974,7.57232894971031,621.6442700592366
09c1cd951e5569d928f49bdca14b8337_L_CC.nii.gz,7066.5969271373015,14980179.97434771,-45995.10229960733,2621.763658390717,47.61864162614681,0.9641365365247649,5.185714882515203,3.801114065236767,19.346897775833853,0.28238348054810397,0.19011893678228173,0.9971319951926283,0.9621306940272719,-0.3693757474591933,0.9954402014548144,0.18457533359361675,80.14332602964413,0.0008576686812642649,10.631811056591218,0.9705581023894908,0.003364947923943062,160.2866520592884,7.5331621789003,667.345575004216
0939c6e7137f2c883403ef0971c99d53_L_CC.nii.gz,5565.380167819154,28069819.804659218,-66540.50448750488,3451.815715993338,496.42249275380345,0.7448725822350257,17.440957794659838,4.989056278214919,166.67351004086106,0.13106063818497604,0.0655876446876355,0.9722346687126376,0.8875102885354753,-0.5773917788200255,0.9994184625253024,0.04757521567351909,69.45966072689775,0.003282973170691007,8.32618833881682,0.8542447728704096,0.00824767531964867,138.9193214537955,6.696759829898836,987.0595521867859
1a16d31e2645cc351c97861d3e47ed8c_R_CC.nii.gz,4522.177498309122,21523858.14107705,-14308.626233080342,3234.956000436219,106.19735265642784,0.9364822837141836,7.906286640040121,4.356079489192041,39.97423121488522,0.21955601126086619,0.13390796095564086,0.9936606403985763,0.9439433601675075,-0.39768260745798134,0.9973607741205432,0.1321586220053504,61.155303885104345,0.0007306871033179065,10.70133401251307,0.9430331868702606,0.0034549601771239904,122.31060777020856,7.6512976634404115,835.2883382731633
1a6061b532f36ce0bb0f85f34eca8736_L_CC.nii.gz,4828.785765572691,12112997.998742905,-3910.4481377199527,1914.509460162899,124.62966596747282,0.8765792548304172,8.52614794747175,4.356051588261338,43.91602128660803,0.21776187934691124,0.1339426635310087,0.9925857552054103,0.9400280874042615,-0.4271355112988441,0.9968325679419071,0.11296354300615592,66.18898367073912,0.0016273771787034131,9.523093494443241,0.8915857988759172,0.0054396771209524325,132.37796734147824,7.141579878980826,509.78478153259346
1b43d2adcf3f300c550d3030b16c861f_L_CC.nii.gz,7206.8109884185715,24766248.60482267,-29344.606843142556,3330.3974733765426,80.78590620537601,0.9524130605894872,6.134424063580919,4.014378592933196,39.19998285734821,0.28320560903649544,0.1961460095563004,0.9952251996841537,0.9563465252570093,-0.3993569233380726,0.9968450689721706,0.18108123814513255,79.96351036934918,0.0009804115606567411,10.536900112375726,0.972646477086617,0.005815727212964875,159.92702073869816,7.617083468991176,852.7958448954796
1ba2c84f59721618a813de779c880fd7_R_CC.nii.gz,8571.573609754989,20262401.12407959,-65010.68580414592,3250.0301359256296,202.87543890660976,0.8816542692380231,10.916007526009103,4.605710478627505,80.04319697696491,0.18216083901248364,0.10352204508488158,0.9880767558879346,0.9252053248797951,-0.6600760590982832,0.9998074694812328,0.10311981405945683,88.37129690773018,0.004209230829701859,7.983053021058965,0.9472499542683748,0.013067419441609924,176.74259381546028,6.4126670056001736,863.2263937080595
1c9145db44de0c31dedafb412ba7ff71_L_CC.nii.gz,4725.321604428338,19236748.03849399,-9287.486544531845,2915.981852817725,72.48565055504204,0.9512480340904377,6.49430450766909,4.073208009304165,27.41809078765682,0.24521873942552064,0.15557151701709904,0.9956538039229843,0.9532249465974217,-0.39500214581197224,0.9970889549855558,0.15310457091032748,63.358973767938245,0.0007819362717847546,10.66226054306192,0.9560500161916424,0.003076342812126865,126.71794753587612,7.644968215250505,747.1168758431911
1caf7a7178dbc3fb9649b93ba42115a7_L_CC.nii.gz,7196.782151794754,59104618.60382015,-123185.45134066604,5969.292194915506,70.64043610837729,0.9765441846651944,5.879706906500802,4.0032481854810245,33.49610700063666,0.2970294914542516,0.213044038693614,0.9957935244182791,0.9578657075199583,-0.3830283276943661,0.9964962352227392,0.18711163983165988,75.64355896509282,0.001292776988179437,10.921450648841242,0.977817731182826,0.02188855548326864,151.2871179301856,7.789292135383835,1509.9831577559721
1caf7a7178dbc3fb9649b93ba42115a7_R_CC.nii.gz,6546.898787439851,10239398.573008848,-45043.676586465546,1958.9929199821972,140.70039438173075,0.8631536540631088,9.053880675934767,4.473629063254048,52.54488322497919,0.19951974665093933,0.11523969490496341,0.9916933148710403,0.936666987058671,-0.43721327145624084,0.9977488895910673,0.10984878786139152,78.05033373635885,0.0013896893313875534,9.762233994448325,0.8851394912554624,0.006119979150720137,156.10066747271765,7.144520380961118,524.9233285909821
1ee83500d570b6bc68f18914335101cf_R_CC.nii.gz,6393.840814391597,32395869.168525316,-7121.63771901007,3970.1858368782778,113.63056074306152,0.9441866798043488,7.953981018093579,4.394622809774363,46.25012494389568,0.23883921553899412,0.15702033927176123,0.9932559265536718,0.9439017693085686,-0.3967489614339256,0.9974794562217443,0.13203108856975615,73.68535819292487,0.0015261393750751286,10.845436933058716,0.9498723929537027,0.030645454637846545,147.37071638584894,7.715361294818184,1020.9540994053343
2a7135493f5db99ea044ed1ecc98a23b_L_CC.nii.gz,4134.329242865777,28029789.350553844,88905.24002662482,3707.6447846424544,391.6747001212694,0.8084623992594165,14.924917760584874,5.016243392838452,152.27811184826652,0.15006269320808427,0.08013695872504806,0.9779982520200325,0.902301896141138,-0.6555578061932694,0.9998797816283279,0.06664698982144449,57.48639393599653,0.0028501843838930514,8.54984900484077,0.9136656605746862,0.010644532494817215,114.97278787199305,6.901898076295108,1024.8298711909306
2b439535813e682037b43be6d4b25732_R_CC.nii.gz,6807.846703082706,17913815.93730313,-12564.25623275084,2791.9538883592986,82.99234435380315,0.9421357244580442,6.7858637892058065,4.201726630357194,34.88099572569561,0.2491338975811663,0.16083465534092434,0.9950477343001416,0.9514650116456848,-0.32518597628184825,0.9923307146853362,0.14416855461670008,78.29793189948757,0.000723811482661728,11.028237072415248,0.9451637719652944,0.010350483271041062,156.59586379897544,7.626555678678667,718.7365581782742
2c536e8b72454ad979b24648db6d7af0_L_CC.nii.gz,8222.719023114494,32927119.277463615,-154531.60359638435,3617.901245957998,109.44153107519627,0.9408455373678589,7.555801809020846,4.325785885539892,48.212834141251065,0.24195786140063047,0.15573241727139453,0.9935208851703432,0.9467531256886492,-0.3705957175033785,0.9957227358346665,0.1441053760273298,85.70539422359607,0.0008200244775883639,10.722571091503214,0.944246611389179,0.0060762568235647515,171.41078844719274,7.578441289845572,931.8356942582961
2d67e239301aac4286ac21daf3769a14_L_CC.nii.gz,6382.996738695534,23888825.871197294,-32211.444163783483,3315.477573983637,213.30559862813288,0.8782307422252497,11.255741881172545,4.7354927070998425,78.32002494886709,0.17533859472686286,0.09853894893529878,0.9875274534829754,0.92302195314015,-0.5857634097714222,0.9997269748208915,0.0995994191283669,74.87921040873486,0.0019648335969339064,9.078354447030554,0.904081141094563,0.0055490934531649255,149.75842081746978,7.176393914164725,882.1957931529422
2dd3da8cb62401521d05671ab6ac4a85_L_CC.nii.gz,9767.661342639876,18636979.031380195,-102181.92035833145,2637.3377381051014,156.28410313214602,0.8871704665439595,8.766804795126154,4.528130851173053,72.97529353023998,0.2565934629706158,0.17956789728835137,0.9908899335369508,0.9395211753708478,-0.4094528223873853,0.9965913171800262,0.12426947734134487,95.64029317548848,0.004532468318333609,9.828431712464807,0.9125788199435997,0.05801951954818106,191.2805863509767,7.159471336897713,698.4054603093111
2df91aab9edbcf4db7faf8da1079685a_R_CC.nii.gz,6636.341554937173,22317212.806836896,-34023.640500476875,3287.4699183158627,29.02717981223123,0.9824659884528026,4.025410902995304,3.478746217797701,12.12440570513919,0.3271974895346111,0.2357343380241276,0.9982434776374774,0.9701935712473129,-0.4030073114828552,0.9973987409896238,0.22830395508189716,76.30007922032922,0.0008237667344963683,10.66966108905791,0.9843255909033175,0.0031149773759383344,152.60015844065856,7.728449760987894,829.1242745320237
2e00b18ddf545eb29cb44c7c56540e07_L_CC.nii.gz,5737.339017611932,24774197.99677162,-31134.274206448823,3640.7610946090963,115.43938514664572,0.9381630619643795,8.219726646235253,4.37572301135083,43.92021191239838,0.21389997965661384,0.1285154801451452,0.9931297207282411,0.9419477193877519,-0.5249990681529693,0.9995123745224589,0.1217331005371168,69.68280349273209,0.0012800712965253783,9.766634583664212,0.9462732043641858,0.004972775794294436,139.36560698546415,7.468866864216913,939.0501199389355
2eddff9a90428070b98f85f4c4b6c758_L_CC.nii.gz,8847.556503983997,47800790.653465815,-224407.72072597325,3996.046784164634,152.54089378672398,0.9261719481522888,9.092598552778067,4.569179703025913,65.10268493146847,0.23024862586353279,0.15241244518980174,0.9910076635472687,0.9369231150301569,-0.5233430720779347,0.9993768641619718,0.12805920793418252,88.80540577144816,0.0030339760355266865,9.469641181044581,0.9408202298175227,0.04043584426524891,177.61081154289624,7.238594607627273,1037.146919487839
2f067732b7b86ef47f0e2a5b1858cafe_L_CC.nii.gz,6370.7454511167,14956128.709713077,1659.5362798227075,2423.194241368874,131.40775774938916,0.8968997160366892,8.754123910610364,4.505831774849452,50.84123035172011,0.21028305062681568,0.1265985927583935,0.9922109304998669,0.9385656909838651,-0.37731151024358395,0.9959628009552801,0.10975545701644879,76.14270862344819,0.0010247608485955933,10.488410339415863,0.9082809354734649,0.01503079534424482,152.2854172468965,7.442098783843182,638.6504997795662
2f5e6219a65c6d86d873dee70ef65d91_R_CC.nii.gz,6061.946314094074,25254046.837309934,9008.831309943966,3491.8953802723618,105.91746679432433,0.940856654372709,7.898183630050535,4.306299862510808,38.86671714021138,0.2177965650419787,0.13267904244411838,0.9936895718662643,0.9439784755259735,-0.4876197187379201,0.9992263976498883,0.13441063570403167,72.21632995053034,0.0010464961069342582,10.104995428698848,0.9481749769004493,0.003976373102725134,144.4326599010607,7.566146743153672,899.4532117666708
3a35eb2c0576cf10861bc2442babffe5_R_CC.nii.gz,6186.688516026617,10048677.049613314,-9710.947830993493,1828.4170300935805,72.52859206379189,0.9232293578197129,6.449296255141505,4.088301529421431,28.762789787909913,0.24921718203811394,0.15963176321813807,0.9956463052143125,0.9535816082102747,-0.34590624158050004,0.9930381944568883,0.15725942654059585,75.8131215068129,0.0009283872951235859,10.485615380190293,0.9284686191219024,0.00426429329569775,151.6262430136257,7.346425405777575,475.23640553934285
3b15274e828c9c2c08e2bbc3a9ee5734_R_CC.nii.gz,6335.590607061784,12271442.20330241,-30986.365530326868,2172.93884836491,173.4685260165976,0.8500419105045509,10.092003493896593,4.629396628435019,64.65696784031475,0.1849251197148573,0.10430160814487519,0.9898072387864139,0.9301672320206698,-0.5267699622649306,0.9994106736484715,0.1040486883323561,76.3878768837976,0.0015609179031387194,9.465064924420506,0.9224992218494604,0.006195235571746048,152.77575376759518,7.122126668268432,586.6018435953777
3bdcc5d8c49f1e2b6332dc0a039ca35d_R_CC.nii.gz,6682.686603808146,57888492.388184324,-64286.03245396977,5641.526082320794,80.20012352713574,0.9718190667800886,6.4881414895791085,4.097734846473325,34.22476852598932,0.27873008213809686,0.19556043655619945,0.9952046186747935,0.9536478057155628,-0.4968476658789224,0.9993694035010491,0.16738581068162894,72.74484324020233,0.0021077261157343074,10.201665559051827,0.9752751871748306,0.03364919014207708,145.48968648040474,7.73204031121038,1430.4315514619784
3d69a7800411de271a7ba6503b05bef6_L_CC.nii.gz,8434.464904700519,27952635.522576697,-72845.81539859876,3869.600814547731,84.14034947110056,0.9571540181198487,6.543810625706655,4.171351401835223,38.948778923603086,0.28415594315302745,0.20022319540882677,0.994993024135763,0.9533839380244855,-0.44062496343008895,0.9981738201725359,0.14679735928318188,86.53313165393749,0.003790748720941498,10.054643034566073,0.965160954070535,0.0530081460431749,173.06626330787503,7.4101152055234945,988.4352910047087
3d342bcea04ea881e47f9de7238f91ea_L_CC.nii.gz,5856.109439301458,32221566.80053615,42352.69017541205,3733.225227090576,73.70554570237928,0.9612681740541866,6.5239057569577685,4.128358143243577,29.178489817642173,0.26482403442761554,0.17959816470390041,0.9955734489334491,0.9530697733855492,-0.4355639615654805,0.9982795678549539,0.14438829066599745,70.29359685908736,0.0022214086826786578,10.284065329677746,0.9650465361699452,0.03662521849701978,140.58719371817463,7.583169354550452,951.732693198239
3e92d46f9695bf4151474a1a8c4738ae_R_CC.nii.gz,5696.200074137206,27731095.150009707,-98916.08010186044,3385.5770056954007,45.29808712636889,0.973549163343323,5.039978379346946,3.7768688677257245,18.66378246453175,0.28886773578234515,0.19828439610044454,0.9972673038030613,0.9631494262479694,-0.37546512610328187,0.9963655195179973,0.20270704414040516,69.72145116310551,0.000675763152454413,10.92409426723426,0.975442817321878,0.002606995909525271,139.4429023262109,7.71088628989323,857.7187732054412
3f8ad54f66c2cb71548bfa0ec7ba88f9_R_CC.nii.gz,8980.558915493395,45444010.65011573,-151400.67480808435,4803.414692108352,93.30416198638879,0.9615211793578615,6.259212461425783,4.097077057665308,51.76791386481088,0.34870009410894964,0.274600690564463,0.9945578735314309,0.9559358422016333,-0.4485695708183127,0.9979292565352451,0.1424175794320707,88.33289903372358,0.020657620916771337,9.597579215081943,0.9736585982538125,0.1399240291269616,176.66579806744707,7.1282715985910645,1224.1797135236857
3f63d52243caf37caca6827d5d446b55_R_CC.nii.gz,12442.074450257718,31750364.30840518,-196104.16710638395,2570.15792330832,131.55436120070658,0.9019201238540738,6.860512107723308,3.946607151363748,81.54986630810359,0.4607444849769096,0.4097887443242256,0.9923483862876634,0.9531026880005048,-0.5259688581715978,0.996029271326075,0.10894036317480682,108.7752591043016,0.10558530830093109,6.852719509666217,0.9482388600577236,0.3209718028814509,217.55051820860314,5.453457693876642,675.4280711272556
3fa94bbf5bd9539dd1821b2b21a7af32_L_CC.nii.gz,6651.945525962479,16257799.947689349,-57373.17089485079,2228.580334717133,451.1786104357925,0.6578570769295985,16.19154994738561,5.027557636062746,171.6823940521597,0.1415834356938122,0.07375842040756314,0.9748176625173081,0.8950672101878794,-0.6388553616601587,0.9996803915805264,0.05226351088823317,78.77915925831847,0.004587220689006868,7.837833095854966,0.9722762413603662,0.01050881744620632,157.55831851663703,6.247964853049098,669.9397362882307
4b2a407b963e70414dfd02d8de6b56e2_R_CC.nii.gz,5482.21325643762,19499999.943549678,16553.38905542984,2733.1103438184978,78.205619488589,0.9442720592893332,6.1176575994557085,3.990427930832226,37.76937616002,0.2698439199808146,0.18087373973599574,0.9954036263966954,0.9563243032809621,-0.45104995656864666,0.9985623228989152,0.17902602473736245,69.41441133143054,0.0010941435261566925,10.193812576898576,0.9572053607546593,0.004529516275334811,138.8288226628609,7.540165691773474,702.8289908267715
4c4b2aae9062c2fdb7a2bbdf48dc093e_R_CC.nii.gz,5529.549048380907,9458810.177217897,-23691.42345501636,1783.5240063699903,86.59443854420797,0.9066470980160797,7.203223017411521,4.231409923410149,32.69195240719017,0.22359604314474735,0.134115202071792,0.9948112255567796,0.9484359714972814,-0.369944180074428,0.9951154687299084,0.13701614799934697,71.45084725399562,0.0009741104730187621,10.303977420060175,0.9173804413083748,0.004201269622076308,142.90169450799155,7.278650907228551,467.52961122855
4e6665640fb0575ba767493f321f40ae_L_CC.nii.gz,6669.404581177649,39571479.0905226,-18471.59389709744,5034.562737909821,148.91435585843286,0.9423062688959539,8.914041514179912,4.504908737111338,66.83391755157305,0.21890815767256078,0.1380448913936672,0.9912535041284611,0.9380934242694454,-0.616480412094801,0.9998371975612503,0.13928590932209875,73.80832642846194,0.0020998738796353745,9.01259004686698,0.9650254802920928,0.007182668375099123,147.6166528569239,7.218134122040158,1295.8692734420642
4f0cf40c0bff5919286e16ca59686f4d_R_CC.nii.gz,8235.007043644684,20331332.14502505,-77243.27857180004,2783.9775545499856,85.7504508973091,0.9398453879901398,6.689480069124271,4.191691938676183,38.840494597320095,0.2601847497189803,0.17272127966455053,0.9949103171660294,0.9523187196653173,-0.3503030611118656,0.9941294577618709,0.1509749613247388,86.95018648270906,0.0010596753601088598,10.71419318078412,0.9479613525644177,0.01720076242971651,173.90037296541826,7.528426386652605,717.4320013618247
5a2b5febd11b2fdd2c7f4fd1d0f92104_L_CC.nii.gz,5254.815279252889,9895581.78255912,-2926.596090044172,1895.7959743456422,128.75686762089364,0.8717393619654835,8.599012756894112,4.4791606723857695,51.903367299682515,0.20681820264696102,0.12186545933539075,0.9923806422785574,0.9396204889842467,-0.42885033530867067,0.9977041150716994,0.12000380259522417,69.37441322164008,0.0012280181255193245,9.907377559327472,0.8903450200645029,0.004964419765762451,138.7488264432801,7.235619595390733,506.1382104916331
5a9ed958f1d0f5c159a68c77c610351a_L_CC.nii.gz,9553.717498627506,9487418.815146223,-43448.2273453252,1854.337595108422,86.47897220764314,0.9105382375209583,6.957860879073699,4.224058657068182,36.108370556571494,0.2599501060646231,0.17689485471949726,0.9948257084544249,0.9503268044887602,-0.32197647326276124,0.9874156169802626,0.1486336782634579,95.45523920575457,0.0016382321303911771,9.832454665210491,0.9191658087565605,0.014687412363955692,190.91047841150908,7.166811204437186,485.2041418290163
5a68e7931d8e40d4135c94c630a6b73b_L_CC.nii.gz,6053.789442039221,14556661.935727993,-9147.942403382993,2585.261265425273,40.537886514858165,0.9690924147880793,4.756291729615386,3.699383088858549,16.75573487884895,0.29960112963016433,0.20877435401124878,0.9975525367686271,0.9651088887117175,-0.35137101919857294,0.9942023915527958,0.208447416992592,73.6043037621337,0.0007386835230301606,10.842200549482016,0.9713324879505366,0.003111824219546932,147.2086075242674,7.600869256432306,656.4497879850335
5b0d75c010fddd1234d0f203e83a96b1_R_CC.nii.gz,7080.676295293612,19088487.52036146,-31871.725162168404,2820.472915479886,122.57321770370154,0.9157192001193549,8.300839100091045,4.3953908206458,47.253450766960405,0.22169474488752391,0.13767229575365883,0.9927233118014811,0.9416532535759906,-0.38086686433594885,0.9960955297827324,0.1337714285740928,80.03617922973486,0.0008299716912416514,10.635850879298784,0.9339083350617181,0.004218921270855084,160.07235845947025,7.5727048819268585,735.7615332958968
5b9cb37e9512dd60d4938f3d964ec1d8_L_CC.nii.gz,8162.459846711555,34837325.2704049,-110948.08051807548,4062.4367516594166,79.73928529296094,0.9612765284334384,6.39908656091687,4.119491170675939,35.886294345522266,0.2956932807534733,0.21404427336427856,0.9952399062038592,0.9543089273515802,-0.4330581817570839,0.9980568001375235,0.15180384701906413,84.65527578022214,0.00462917776674376,10.203735974982983,0.9668575783504029,0.061434976029181285,169.31055156044437,7.502070421996412,1035.544009238096
5c0ead6d5bbf73cddea7ec178065219d_L_CC.nii.gz,7325.618220639011,12951293.198445376,-49986.53411206853,2144.5699239744104,219.54471038573436,0.8135309129533925,11.396711291554618,4.73334127680139,82.33122163866949,0.1668736817534242,0.08708627559535925,0.9872625501823092,0.9221436366784658,-0.46502188087293483,0.99771787336061,0.076592058958953,82.73028445394128,0.0023026583932941962,8.931523427495483,0.9063864207372786,0.007032061959603564,165.46056890788253,6.930635405953915,591.028658590036
5c32aac989899542513be63d6b2d392c_L_CC.nii.gz,5069.501841590267,23683708.404496346,-669.0836238539455,3674.8185608622716,223.76716595724247,0.8845490734960104,11.39336747423935,4.747908075393033,84.56222364503688,0.1740377358992748,0.09758540936953494,0.9870593003118509,0.9223251745692174,-0.5655886293778708,0.9996969039558343,0.09002242842365066,64.85380826179826,0.0015893265064560098,9.401615489120674,0.9096120218800545,0.0052366036313412695,129.70761652359647,7.298827928816004,974.6464317048785
5d99bedc43c3225261b270fa4bc5181c_L_CC.nii.gz,6275.967069816159,30257449.722524315,49827.972228614046,3843.731603630815,63.900734668978885,0.9672130905895536,5.866276735373042,4.001826560633435,27.45810143233691,0.28104847856839554,0.1939650929276618,0.9961644665177425,0.9576679782544422,-0.3537895423721848,0.994842570543643,0.1764092616171975,73.0127433154369,0.0010073338347007456,10.992210880241103,0.9742075568659664,0.018865652806261853,146.02548663087356,7.695705827958276,976.9080845749473
5db9ac9324ec6e77d5e5c4a3158323d7_R_CC.nii.gz,4701.960915692344,12286315.817189671,14919.01982894311,2196.1987983774843,106.34822162983365,0.9076099750904478,8.047179966848995,4.321999473871212,38.17359797114199,0.2049003951595816,0.11708288270404237,0.9936466801946396,0.9428624512175063,-0.47961081425056395,0.9988008030358994,0.12035862294098662,64.64881664343868,0.0014726828204800172,9.582382814984964,0.930664434779966,0.005794521282218561,129.29763328687739,7.199830777059856,575.6367550018296
5e738b21ece161aa495b59fee9c11455_L_CC.nii.gz,8221.53735087587,37946973.035142794,-184471.8277037905,3627.9249203896716,173.40154823497434,0.9082762911862395,10.033493976502436,4.622033765355357,64.18735153489285,0.19152211135079167,0.11030977864889514,0.9897862459630119,0.9306415513346488,-0.49448454626688676,0.9992071000156668,0.1051405807392497,85.77622725271023,0.0012044677805438892,9.852279585580895,0.9261092333011726,0.004701689226053674,171.55245450542043,7.388895874982528,950.331617156162
5e3216db19aa93c7e397e29a7ede3ea8_R_CC.nii.gz,6601.021791251388,13618508.453380585,-51341.29017389951,2269.56802299373,110.74626301501819,0.9063102499651212,7.862796156837217,4.362209160367546,45.048294815116726,0.22191823551152257,0.13522973820508677,0.993435529440934,0.9444507218398797,-0.3175259068784368,0.9906950843388109,0.1326119817244253,77.85359716837229,0.000708831833189814,10.876592593161469,0.9112784604389079,0.0036184619188617357,155.70719433674458,7.478373648370495,595.0785715021884
5e6223b2b7e41ccf246c948cce61dc64_L_CC.nii.gz,6274.355608620514,17232642.38929093,-31081.673261724878,2890.251656275886,115.04739864800717,0.923208109775236,8.013979022892853,4.363818799474598,45.89138888074979,0.2201989247905848,0.13340070750569727,0.9931728758112952,0.9434965617754327,-0.39649091274383796,0.9970891031688671,0.12865390739452218,74.70259959910784,0.0007894519986723417,10.572541877359791,0.9323466350101537,0.003029786325942499,149.4051991982155,7.563027496001064,751.3247637309728
5ed241690b2b9488f7c68e441357c6cf_R_CC.nii.gz,6396.215661214159,22604125.57851458,-129819.77648993628,2839.677403773382,95.59713523570272,0.9346025614882567,7.145311693679032,4.2305105227310005,41.91457175658939,0.23747758378563133,0.14876351402608012,0.9943442761717518,0.9492486088402888,-0.4296490355215635,0.997886584554777,0.14156868547059373,75.56537511597615,0.0011782169645236803,10.040120445657623,0.9522502859266799,0.006163274569364283,151.1307502319524,7.293803327441423,733.8186347522724
5f6e4829dd69b3643277057fc8640aa3_L_CC.nii.gz,4699.128788653953,10027269.478791688,25200.258930362914,1822.2332656815236,32.94396872984459,0.964373536716168,4.398360277575434,3.562930680834977,12.64583559799695,0.30566549632628714,0.2115847453141739,0.9980045955002879,0.9675035812593854,-0.3657618641464271,0.9944022912533605,0.20232318607193683,65.20534306931911,0.001112154442201249,10.343469525969743,0.9669693303354081,0.004455658221292944,130.4106861386378,7.3683458725447215,463.7943086028424
5f6e4829dd69b3643277057fc8640aa3_R_CC.nii.gz,4397.900315856583,29571176.61307927,139366.8982445672,3338.7151016610637,37.784919505011146,0.9776239872683594,4.62055873692015,3.6487031751695618,15.401937089065763,0.3016429295087162,0.20896015580909055,0.9977166159791153,0.9660228768291828,-0.4165602661675011,0.9976263449690853,0.20322257140368444,59.77157516110173,0.0010509349945323511,10.355522778078619,0.9803288482795649,0.004690306627017948,119.54315032220342,7.55206187282342,844.1250052915185
6a015ff718625303ff6dbb763f0e7367_L_CC.nii.gz,7230.5316585539,23875688.007496838,-95521.57458083387,3011.8209470601146,211.80078870150095,0.8681286108247875,11.188320392011311,4.781211946180339,78.62100637733995,0.17047222537126144,0.09150910830274259,0.987631356502428,0.9234532684858808,-0.5033931227975871,0.9993281035745505,0.09522631955002961,80.81055884711037,0.0011797253875956248,9.846571717731607,0.896951083398358,0.004192222917959837,161.62111769422083,7.335879675896644,805.9054339404046
6a5fb5091c54d26f78f2439269bdaa82_L_CC.nii.gz,5983.554500042591,14738649.987510381,-19283.019385417258,2329.018695863706,161.2353793280424,0.8703910214175878,9.913989961821189,4.586116364560588,56.92363602226207,0.18268548922702166,0.10119142516547605,0.9904483681429028,0.931037725798244,-0.5077445396870721,0.9992447589222646,0.10713125735973299,73.7665262086623,0.001444218999583952,9.560296576892705,0.9158153002494025,0.004517257684220675,147.53305241732448,7.179371172259085,622.5635187979376
6b1c4a9ef24d15a5bb55173142dd5475_L_CC.nii.gz,10584.854448211321,24324530.064591497,-137978.05530478258,2628.858555499333,98.26026543167404,0.9278521706062139,7.165394778043627,4.276109473614192,44.240815516182415,0.3026708581882746,0.22787049542687843,0.9941385590251098,0.9492941884378315,-0.4274773313650329,0.9966349665390146,0.12867193821036207,99.76014294294067,0.0116544199855375,9.302969146914728,0.9489132416794387,0.1007607260350397,199.52028588588135,6.878439136854481,681.7797052327511
6b675c868d714a59a521978dd89ee685_L_CC.nii.gz,6251.0890022000685,10920853.763970835,-46981.44261747165,1794.323440166258,329.75050352124657,0.6861786375892001,14.463054128534006,4.77901046509305,109.92694609698873,0.135687287975409,0.06309420774462535,0.9809695449659258,0.9035066841631838,-0.6172121930433663,0.9993351197954871,0.04631293525028733,76.70628210798485,0.00609870403161957,7.423388863438766,0.9409327774262561,0.014228160899987526,153.41256421596978,5.9716761269705785,531.018485921876
6b1818c48d12b25aa72fcf1d22aed05a_L_CC.nii.gz,7141.279190102522,10939100.072038906,-29678.716219949823,1950.9745270041626,57.242337475900726,0.9427863423581463,5.722048899325199,3.959026363411197,23.240485959540397,0.2678787736130515,0.1769184447977699,0.9965560774397989,0.9584575576646551,-0.315796695664107,0.9902189212759088,0.1700860323241758,81.65671702136689,0.0007884269587021096,10.786418470189691,0.9456311179243997,0.0030992916659668347,163.313434042734,7.426218644231625,502.0542161200168
6b36604715be66f9d4db3343ad030125_L_CC.nii.gz,7969.613325400837,55961314.48295391,-128617.55352797743,5690.239415026155,116.23104551985182,0.9597760613513336,7.650453691042408,4.370725000259433,54.28886280041207,0.28670044510115966,0.20984540436335472,0.9931132745309866,0.9463679777832168,-0.45147424301715633,0.9984158484694193,0.12826459635776938,81.09137333667488,0.008685138070136605,9.966834299135906,0.9642897897163372,0.08768225200593283,162.18274667334978,7.439031560432814,1451.6176151365019
6d852de518cabf8f6c797c4d9d7de1c0_L_CC.nii.gz,8995.111660339522,39759606.153587386,-173558.71042586636,3997.4274319482183,71.84358805462396,0.9644662262076669,5.699895302097064,3.9726444569797046,37.189522595732086,0.3053631339049934,0.22113446733155717,0.9957827012976052,0.9592581974414502,-0.40998055945457895,0.9971912178745062,0.19122419298613233,89.51745077607485,0.002493405821915745,10.308819366544919,0.977715349353417,0.03651524884307319,179.03490155214956,7.496192876997615,1017.3177550007122
6f9a7e206e52623c945f1039cd069cee_L_CC.nii.gz,6672.701995659256,32164164.708311766,-121356.80691945265,3663.1886197562653,60.49667454933011,0.9674921338212461,5.844426978017161,3.978047220150496,24.739121755342847,0.26513472731121457,0.17455878406708308,0.9963681487937817,0.9576640034830013,-0.3518560851331906,0.9949506160922086,0.169559418648319,75.97374408836517,0.0006701443785627296,11.059184056853848,0.9689588201067858,0.0038168885561320337,151.94748817673047,7.7511302267694955,930.9213235763989
6f9a7e206e52623c945f1039cd069cee_R_CC.nii.gz,4954.983445106321,14597800.309824884,19594.853840677766,2396.76796703405,299.3379388849139,0.7766502943247555,13.560053072072298,4.881220749131343,105.66536310561536,0.13753280571833404,0.06387904729230802,0.9827421938179624,0.9090538057293771,-0.6075044689687482,0.999686979560876,0.07487078573346218,66.55758535954246,0.0029820594235718946,8.454798348523752,0.8935245775912838,0.006916432357588554,133.11517071908486,6.7314923697955935,674.0264764797407
6f461358d3788da2148e345cb01c78c7_L_CC.nii.gz,6225.0179523109155,25674355.048420604,54240.183087492216,3572.4021656751647,98.30426983920762,0.9462980409576662,7.337173294379999,4.296773596997671,41.24192372693377,0.24785945970664558,0.16312257810042527,0.9941444089125908,0.9479438625991607,-0.37471417231635157,0.9961356230327453,0.140415943432282,73.18686209365231,0.0013172883476333358,10.729034689874199,0.9588760775363391,0.024861874552501998,146.37372418730465,7.60367085169714,917.6766088785918
7a7f2b151786da9eadf8e98e04fdbac7_R_CC.nii.gz,7423.487694546215,26042251.49661453,-78427.49102871539,3520.6919605506687,99.2135369979984,0.9448692567228589,7.235501697175636,4.2630392096065055,43.3963243764427,0.250673560546154,0.1656582323984288,0.9941172062754335,0.9487457070705477,-0.42828398859735445,0.998097852010665,0.14795527494167468,81.04269414022289,0.0011437456535284992,10.378704682783567,0.9525765308622284,0.01584595885810037,162.08538828044553,7.5876942119116055,904.9763743871656
7ac5bd45e5d5fca171e070d73a2170d5_L_CC.nii.gz,5076.271974279245,33032433.14298524,75116.52601176072,4016.325447198667,276.6672027513062,0.8708190755569898,13.104005101688218,4.81276432095771,93.05343209312511,0.14719176417941002,0.07369383924317825,0.983957117814623,0.9116187320400553,-0.6916303594205624,0.9999412622049221,0.08094603518784377,64.34765375721081,0.0027219653551900412,8.561266964430548,0.9215856989719284,0.00612777612403516,128.6953075144216,6.8498240466723095,1073.2481624874943
7b1cea18dd875468cff8b957e23a82ec_R_CC.nii.gz,7831.94601701155,37962556.309095696,-129104.15121975102,4281.844054302761,89.871362513626,0.9588424118134578,7.06222505261918,4.229468956541042,37.004380969152116,0.25182099758164944,0.16562008272647355,0.9946362434183238,0.9496689752052829,-0.4565470738741368,0.9987083547176328,0.13563242822583996,82.36403315602062,0.0018441779854123273,10.178239962606622,0.9655673360975917,0.0299482941132418,164.7280663120413,7.570430610279784,1092.9288542040954
7bdfdd72d14a004a88918758eec0ebf8_R_CC.nii.gz,4938.18625626697,9675632.266271617,10623.435798052764,1629.9829779046993,110.77196322406132,0.8712641634354058,7.20942417219228,4.240765469298883,55.406167353171305,0.25473220794240453,0.1679054195171807,0.993503013143086,0.9494292916940268,-0.4311861941625412,0.9975244927386955,0.1637367307438777,67.51489179323907,0.0014962228657961379,9.740259903126331,0.8980976420751208,0.007688192418939,135.0297835864781,7.091799911567857,435.1887352821901
7c51789da6c462e55bcb95c2a7d437ee_L_CC.nii.gz,3095.5256761330747,19632995.087741777,63978.41840069246,2837.5863016763774,69.48349394847372,0.9521220698751476,6.281295827003666,4.073807272539232,28.615296399994207,0.2509599235963773,0.16052423631244528,0.9958338661529202,0.9547232385966973,-0.4300369398151046,0.9982347977698431,0.16125870324398808,49.02532615253907,0.0009392731144102611,10.360817762207716,0.9616245763810989,0.004975730100307957,98.05065230507815,7.529418508293458,726.7674489062131
7c98228fc11204260460934ba8c6e12b_R_CC.nii.gz,8553.434199136356,31100922.2964138,-126061.97020182267,3662.419533489058,139.16866437546372,0.9257901035298358,8.924212300887525,4.457056829184814,53.188276632074405,0.21144419206662315,0.12987223748245372,0.9917553781986359,0.9376242128089419,-0.5776842960165631,0.9997039566866179,0.12987965374941646,87.58852963211072,0.001975236029884044,9.203441110740432,0.9511249268155539,0.007621715884801324,175.17705926422133,7.207386765458907,950.3970494661309
7ca902f0527e761fc2ac5435ed008fd2_R_CC.nii.gz,10185.36959339972,11894401.264075415,-66916.53582241871,1980.0778069753062,144.4676552056033,0.8634491818309682,8.451650437505826,4.384546069074763,70.57133146307466,0.25128424104290087,0.16809741156300528,0.9915997467749068,0.941380615275537,-0.32160551706927826,0.9832017871996429,0.09545216636972953,98.6224590185942,0.003197448681066811,9.049663558115004,0.8901897420079706,0.025862696666484417,197.24491803718846,6.841820890611951,531.1363655452268
7ed7391fe55395a5e33c4254788c1058_R_CC.nii.gz,9584.570371353251,10453678.900608819,-67561.44482994844,1664.3536595138137,72.46038909919716,0.9154545138185418,6.2380572582158145,4.063685121377965,30.70230082715041,0.26805330348685247,0.18016876214488914,0.9956638516869134,0.955200166850088,-0.30239690428908456,0.9848851874248219,0.1664737813304672,95.84611796170199,0.0011026286790205187,10.416314545074542,0.9525954054727017,0.004850587669064502,191.69223592340396,7.1456398180533895,434.2035121532535
7ee98232df9bcefc6b54530b6a616690_L_CC.nii.gz,6846.592376233191,12931866.035789216,-64223.59397818023,2037.7761563449062,308.53509509116924,0.7318355403641793,13.394113650062923,4.639920888504186,122.67344800664245,0.1544368957399216,0.07670253214526537,0.9824089179953961,0.9105977827698861,-0.44722868199736376,0.9953522707643487,0.035199030396789344,80.08654730864069,0.003846861291970474,8.20902850936018,0.8682424750813151,0.01185259415510055,160.17309461728127,6.386164924550519,586.5778128590186
7f07498cddc674558db06129c60f7113_L_CC.nii.gz,7467.948271725802,20666318.603275552,-31244.22291830972,2922.4634309835455,92.85247129531517,0.9383915339438078,6.960118753878178,4.172610568063312,39.2775517079337,0.26691549937337883,0.18315222101392267,0.9944727165122735,0.9505921737829869,-0.3740174634951921,0.995317024935344,0.152446874738787,82.22233130790553,0.001687853140352337,10.607061580276458,0.9484680931914744,0.030673771350487086,164.444662615811,7.538602955210978,753.8289755697149
8a26d9b98507af51d70f96c4db50f308_L_CC.nii.gz,6485.17633319117,17929170.971879676,-59977.24347257539,2717.0703254247087,27.595942687320772,0.9798468367560774,3.9645972585246327,3.4691526342365924,11.320697256578715,0.33020854071771194,0.23868006578467274,0.9983274498124254,0.9705953337140424,-0.3807369633169552,0.9962171717829346,0.2255221160997108,76.24159629795224,0.0009376862905608498,10.624361278643768,0.9810796143151597,0.00418924647835017,152.48319259590443,7.616697403716525,686.1665670280076
8a83a1b911d3238c144aa0e654be5dfb_R_CC.nii.gz,5618.281905001535,21067309.0786196,-2258.0518985163253,3087.3222813538414,184.8154907586649,0.8867446355630979,10.373248345447035,4.635944468646704,71.7240507807403,0.18221115438465985,0.1030977994414942,0.9891961819959619,0.9284838589726713,-0.5447391293888667,0.9994547751592195,0.10325346849780487,69.94513237625068,0.0019010440723185207,9.131439006639985,0.9220942976452088,0.0048300330468666434,139.8902647525016,7.200298161234208,818.0344430281274
8ae2db86499819584e175cadf9099d25_R_CC.nii.gz,9697.311668681823,12368936.674609458,-82929.05444748863,1653.5155223731488,103.20077553252997,0.8801013341949189,6.9789002218698055,4.208413093683204,51.71634134521304,0.25235584302965236,0.1647406573644307,0.9939676307784164,0.9508309792262902,-0.3571621142012741,0.9928992084399577,0.1666647447902305,96.48583142656548,0.0013103071240140093,9.98368877504665,0.9104565109344334,0.006884806564362954,192.9716628531308,6.980795101944587,439.17907447642017
8b99ca393abc7123ee91a33a3e52232a_R_CC.nii.gz,7796.924932187627,16688694.31264844,-28662.608794335632,2633.564433366962,87.44272926156512,0.9352169815341842,6.857252038023987,4.204112742018015,37.38290968555455,0.25776519661925834,0.17207745299156846,0.994787324089125,0.9511278991568806,-0.34732553252643317,0.99365215575162,0.15192708043053124,84.61825944981531,0.0010427509375761713,10.723773179247589,0.9429506991166338,0.016831813795535694,169.2365188996318,7.508946328089396,680.2517906571305
8b202f831f93639ebcb9cccccec03b09_R_CC.nii.gz,6640.583571840373,14500726.228585755,-37925.54665598537,2278.792734805551,103.89921264066426,0.9126494324230617,7.724338585504469,4.330467864398552,40.584481145923874,0.22554127123030143,0.13969061363199972,0.9938111374157355,0.9452219678052699,-0.3494680056854723,0.9940402009122766,0.13483369856534394,78.08193878111278,0.000758534739109924,10.684106223934544,0.9333458622202027,0.003345309681079721,156.16387756222554,7.466294180593486,595.6729868615539
8b477ee27be976426d02aed5a02b4e55_L_CC.nii.gz,8548.91236433365,12436937.807981463,-46992.05753707445,1773.0324781949898,49.291756226919844,0.9452741957296993,5.075640211042273,3.821892099235071,22.39805196687277,0.2995550959968392,0.21205142241501462,0.9970424618537441,0.9630572700642845,-0.3658102269407467,0.9941512008678143,0.20946006787407143,90.09935162347914,0.0012434196159824898,10.106174931922327,0.9616210691438545,0.00544646342894844,180.1987032469583,7.206810253110898,455.581058605477
8c2aca576f75222aefb98d06ae4c0f4d_R_CC.nii.gz,9133.450001854939,11552940.129055856,-65255.12361965452,1585.505497023376,30.066594735600777,0.9625496086050327,3.605100322796477,3.3392881097389773,16.38579083862023,0.36351324428907333,0.2774430881439804,0.9982185551143248,0.9734635009842764,-0.35886825764394903,0.9928445532629695,0.26872585928229437,93.5124031661216,0.0014626298548278908,10.148542548084846,0.9655515425160308,0.008507035397706267,187.02480633224317,7.203596440697483,403.89302293974447
8c3a72bc005d1638babd62ba02d56126_L_CC.nii.gz,7602.542036320653,27253767.133167095,-137327.67589753837,2867.952948586945,107.63148849091186,0.9269244642996176,7.85154006621603,4.36030407490817,42.68602765782403,0.22113449762235182,0.1349711767011436,0.9935934635028505,0.9444147904607433,-0.40933850907392744,0.9974335317231651,0.13499994596867074,83.14018502757837,0.0009013420859055059,10.35037418199858,0.9376379517005133,0.003237048142882862,166.28037005515685,7.414360436803125,743.8961092694647
8e467df187e9aa4bf69c9967fe2a500f_L_CC.nii.gz,4734.960739804654,16595005.411222823,3992.4486426924395,2640.641006182425,148.55317081148627,0.8934550520851926,9.28965165280138,4.578082960600241,58.62936293821409,0.19790765752910888,0.11441475427682612,0.9912196460697293,0.935226369594311,-0.45470109831908256,0.9986313508117394,0.1085476128817118,64.12388975178149,0.0010837236295708934,10.056711811206235,0.9063776286459998,0.004061539998231873,128.24777950356298,7.447984831887947,697.2985442484774
